umas2022/MultiAxisController_MG43/tests/play_model/obs_stand_2025-09-11_17-12-00.csv
time,base_lin_vel_0,base_lin_vel_1,base_lin_vel_2,base_ang_vel_0,base_ang_vel_1,base_ang_vel_2,projected_gravity_0,projected_gravity_1,projected_gravity_2,velocity_commands_0,velocity_commands_1,velocity_commands_2,joint_pos_0,joint_pos_1,joint_pos_2,joint_pos_3,joint_pos_4,joint_pos_5,joint_pos_6,joint_pos_7,joint_pos_8,joint_pos_9,joint_pos_10,joint_pos_11,joint_vel_0,joint_vel_1,joint_vel_2,joint_vel_3,joint_vel_4,joint_vel_5,joint_vel_6,joint_vel_7,joint_vel_8,joint_vel_9,joint_vel_10,joint_vel_11,actions_0,actions_1,actions_2,actions_3,actions_4,actions_5,actions_6,actions_7,actions_8,actions_9,actions_10,actions_11
0.030000,0.000000,0.000000,0.000000,0.000000,0.000000,0.000000,0.000000,0.000000,-1.000000,0.000000,0.000000,0.000000,0.000000,0.000000,0.000000,0.000000,0.000000,0.000000,0.000000,0.000000,0.000000,0.000000,0.000000,0.000000,0.000000,0.000000,0.000000,0.000000,0.000000,0.000000,0.000000,0.000000,0.000000,0.000000,0.000000,0.000000,0.000000,0.000000,0.000000,0.000000,0.000000,0.000000,0.000000,0.000000,0.000000,0.000000,0.000000,0.000000
0.050000,0.018368,0.011159,-0.173034,-0.217242,0.119592,-0.196000,0.003250,0.007364,-0.999968,0.000000,0.000000,0.000000,0.034355,-0.009344,-0.004033,-0.006416,0.017360,0.047410,0.060672,0.067349,-0.291493,-0.099725,-0.170674,-0.198003,2.737354,-0.954251,0.502878,0.463210,4.186411,4.414113,6.079310,6.841400,-4.135536,-1.276912,-1.771283,-2.580487,0.262962,-0.140255,0.018430,-0.017895,0.360104,0.471887,0.610937,0.719152,-1.324357,-0.469667,-0.799957,-0.927435
0.070000,0.019764,0.007898,-0.361122,0.067788,-0.185151,-0.078709,0.001702,0.004568,-0.999988,0.000000,0.000000,0.000000,0.025408,-0.047514,-0.019215,0.000084,0.037032,0.089311,0.142547,0.191647,-0.379967,-0.136842,-0.189002,-0.192859,-1.439589,-1.695685,-1.758920,-0.358289,-0.318258,0.779409,2.640529,4.718690,-0.819861,-0.406630,-0.357130,-0.549793,-0.135477,-0.184964,-0.245846,-0.075806,-0.170279,0.036651,0.308725,0.491292,-1.483791,-0.505779,-0.714656,-0.723965
0.090000,0.008770,0.007242,-0.550250,-0.029748,-0.110309,-0.099048,-0.001340,0.003109,-0.999994,0.000000,0.000000,0.000000,-0.038683,-0.096119,-0.070595,-0.030001,-0.008849,0.082744,0.145141,0.209553,-0.487900,-0.190887,-0.191844,-0.230419,-3.168470,-2.224859,-2.899395,-2.048726,-2.086580,-0.419917,-1.115166,-0.984132,-0.795893,-0.344519,0.266232,-0.117548,-0.243959,-0.397966,-0.313603,-0.207902,-0.133795,0.255837,0.298576,0.435779,-1.960375,-0.767644,-0.727688,-0.868690
0.110000,0.010122,-0.000256,-0.766049,0.040488,-0.040043,-0.063780,-0.002693,0.002571,-0.999993,0.000000,0.000000,0.000000,-0.095241,-0.134065,-0.115602,-0.074126,-0.046028,0.091375,0.087209,0.145210,-0.533346,-0.190739,-0.186625,-0.263277,-2.076647,-1.512082,-1.654796,-1.980652,-1.102715,0.775016,-3.418781,-3.687690,-0.326997,-0.059627,0.552833,0.176115,-0.274095,-0.463701,-0.331192,-0.254519,-0.123540,0.443709,0.213633,0.431132,-2.161354,-0.779686,-0.735796,-1.045899
0.130000,0.070942,-0.064142,-0.703532,0.796695,0.586537,0.287122,0.005632,-0.005634,-0.999968,0.000000,0.000000,0.000000,-0.095138,-0.142669,-0.122077,-0.110235,-0.042253,0.048572,0.010009,0.073890,-0.489680,-0.293935,-0.341313,-0.277892,0.248859,-0.872332,0.388167,-0.892384,0.583871,-5.540592,-5.057308,-3.006202,0.729300,-9.676462,-10.611828,-7.470662,-0.104948,-0.590407,-0.370772,-0.331836,-0.175917,0.420415,0.160687,0.383845,-1.985544,-0.403904,-0.771498,-1.048271
0.150000,0.197542,0.132985,-0.426091,-1.691418,0.680057,0.445460,0.018006,0.023724,-0.999556,0.000000,0.000000,0.000000,-0.052962,-0.110345,-0.149246,-0.140505,-0.031107,0.008417,-0.050361,0.073680,-0.457915,-0.388209,-0.467494,-0.322213,1.139226,1.841229,-1.282133,-0.827238,0.356254,-0.956468,-3.872015,1.730291,0.423548,-4.747703,-7.692983,-1.662358,-0.197172,-0.256251,-0.379520,-0.079790,-0.145453,0.290335,-0.018524,0.563722,-1.840150,-1.182280,-0.519612,-0.543526
0.170000,0.030997,0.150313,-0.436338,-0.208432,-0.910231,0.231791,0.012515,0.028517,-0.999515,0.000000,0.000000,0.000000,-0.062086,-0.077810,-0.138782,-0.071563,-0.032582,0.033500,-0.104865,0.102706,-0.512866,-0.429257,-0.543989,-0.332580,-0.110569,2.215267,0.614356,4.151777,0.093903,1.919446,-2.994349,1.014384,-2.654693,-2.281350,-3.511897,-1.357700,-0.145261,-0.138971,-0.382768,-0.034620,-0.007656,0.182473,-0.504758,0.118404,-1.647950,-1.696454,-1.505323,-1.092126
0.190000,-0.006359,0.059261,-0.416210,0.115254,0.019378,0.180381,0.005550,0.014493,-0.999880,0.000000,0.000000,0.000000,-0.054603,-0.081303,-0.072819,-0.008037,-0.007829,0.051064,-0.102450,0.033346,-0.526259,-0.475205,-0.570147,-0.428873,1.665548,0.313150,2.716527,0.920923,1.623025,0.040534,1.340354,-4.098836,-1.018672,-3.945054,-0.952456,-4.077765,-0.029145,-0.280650,-0.140041,-0.155624,-0.175928,0.068113,-0.352843,-0.196456,-1.713364,-1.208483,-2.162634,-1.483254
0.210000,0.085086,-0.015255,-0.390505,0.247099,0.290608,0.079531,0.009208,0.002695,-0.999954,0.000000,0.000000,0.000000,-0.056045,-0.090682,0.001641,0.006812,-0.030704,0.044031,-0.035115,-0.009507,-0.592449,-0.521856,-0.560772,-0.507508,-0.103990,0.018909,2.665417,0.091701,-1.682536,-0.804816,3.740676,-1.115597,-3.968920,-3.772173,0.237548,-3.887706,-0.118352,-0.285985,0.033515,-0.078571,-0.660543,-0.065292,-0.058384,-0.001175,-1.698500,-1.361839,-2.222154,-1.807578
0.230000,0.081488,-0.041719,-0.375202,-0.376376,-0.160148,0.026777,0.008793,0.012782,-0.999880,0.000000,0.000000,0.000000,-0.043610,-0.078803,0.020316,-0.009207,-0.070434,0.028504,0.060395,-0.014276,-0.666334,-0.584788,-0.528169,-0.560037,0.551362,0.507638,0.621083,-0.659276,-1.776315,-0.532681,4.498172,0.032551,-3.069577,-3.161372,1.398574,-3.307154,-0.230100,-0.325095,0.046902,-0.132813,-0.996918,-0.386686,0.230910,-0.034448,-1.850678,-1.717475,-1.873212,-1.980146
0.250000,0.089689,-0.055150,-0.334588,-0.055314,-0.227839,-0.022632,0.004150,0.017625,-0.999836,0.000000,0.000000,0.000000,-0.033373,-0.071848,0.040217,-0.019514,-0.105685,0.020585,0.147900,-0.020958,-0.722101,-0.642923,-0.483886,-0.616300,0.362053,0.187033,1.065305,-0.390412,-1.723017,0.038657,3.530996,-0.621372,-2.543121,-2.247600,1.523059,-3.246201,-0.135959,-0.320318,0.192603,-0.113433,-1.043625,-0.547045,0.403566,-0.159685,-2.105721,-1.951332,-1.603543,-1.950712
0.270000,0.066151,-0.063017,-0.256574,0.077988,-0.282905,-0.086123,-0.001509,0.016932,-0.999856,0.000000,0.000000,0.000000,-0.026555,-0.070300,0.060639,-0.024677,-0.135457,0.022785,0.187195,-0.025873,-0.760975,-0.685215,-0.467135,-0.668199,0.342878,0.009145,0.852575,-0.203506,-1.687032,0.263547,0.860041,-0.395697,-2.471353,-1.704294,-0.223454,-2.967619,-0.061968,-0.248223,0.307590,-0.038626,-0.849472,-0.432995,0.370067,-0.425576,-2.265698,-2.217254,-1.394217,-1.938185
0.290000,0.028503,-0.058022,-0.138208,0.176797,-0.168370,0.056092,-0.006133,0.014532,-0.999876,0.000000,0.000000,0.000000,-0.009450,-0.068030,0.068069,-0.029447,-0.125501,0.026062,0.174656,-0.027660,-0.759683,-0.709897,-0.489049,-0.703265,1.009507,0.119464,-0.000916,-0.291642,1.319825,0.007466,-0.794157,-0.206339,0.285251,-1.170106,-1.262729,-1.848234,-0.034601,-0.158483,0.385366,0.026430,-0.528856,-0.230311,0.149056,-0.638748,-2.414719,-2.386961,-1.317021,-1.888086
0.310000,0.053150,-0.032450,-0.062223,0.333154,0.134614,0.124760,-0.005698,0.006208,-0.999964,0.000000,0.000000,0.000000,0.006764,-0.064727,0.080096,-0.028443,-0.062686,0.032952,0.156222,-0.027082,-0.718328,-0.707889,-0.516244,-0.718475,0.613944,0.470215,0.558302,-0.046955,3.350417,0.518281,-0.591856,0.044686,1.856199,0.426346,-0.855239,-0.619621,-0.035081,-0.093260,0.361928,0.074877,-0.280694,-0.027623,-0.092869,-0.733028,-2.445948,-2.475912,-1.440894,-1.918240
0.330000,0.065134,0.006449,-0.040625,0.201990,0.084525,0.074215,-0.003338,-0.001930,-0.999993,0.000000,0.000000,0.000000,0.007426,-0.041530,0.095133,-0.017457,-0.002044,0.061015,0.136548,-0.021942,-0.682278,-0.672425,-0.541412,-0.718356,-0.125037,1.598099,0.478530,0.394628,2.332207,1.442548,-0.576096,0.331106,1.169176,1.886608,-0.786770,0.241433,-0.066680,-0.009029,0.350640,0.139532,-0.157619,0.075910,-0.193656,-0.777041,-2.292231,-2.445469,-1.544907,-2.018249
0.350000,0.037096,0.025870,-0.032614,0.427296,-0.052349,0.063979,-0.003309,-0.011884,-0.999924,0.000000,0.000000,0.000000,0.000201,-0.010892,0.112243,0.000306,0.034632,0.092537,0.125229,-0.018477,-0.657264,-0.629615,-0.554092,-0.720183,-0.417370,1.574054,0.743068,0.696954,1.246667,1.197794,-0.322867,0.249778,0.757966,1.779310,-0.268076,0.042563,-0.077250,0.067055,0.412009,0.165205,-0.047517,0.138718,-0.146551,-0.725432,-2.118228,-2.268574,-1.640241,-2.132724
0.370000,-0.001558,0.036033,-0.011987,0.372535,-0.179144,0.003044,-0.006033,-0.021720,-0.999746,0.000000,0.000000,0.000000,-0.010884,0.011723,0.127728,0.015140,0.045631,0.113605,0.120044,-0.014877,-0.644660,-0.602069,-0.555013,-0.725249,-0.514398,0.909867,0.626778,0.652587,0.068323,0.651225,-0.119231,0.133697,-0.040122,0.762773,0.229549,-0.236430,-0.065079,0.102592,0.475051,0.154401,-0.050222,0.166400,0.025302,-0.559806,-2.014202,-2.066325,-1.701334,-2.241573
0.390000,-0.021210,0.049297,0.026620,-0.180941,-0.119104,0.059693,-0.009165,-0.023315,-0.999686,0.000000,0.000000,0.000000,-0.018540,0.016413,0.134449,0.021651,0.045685,0.117420,0.121475,-0.012675,-0.638993,-0.599640,-0.543708,-0.725385,-0.158833,0.005721,0.135953,-0.020548,0.050386,-0.105960,0.004911,-0.026101,0.137634,-0.285493,0.257760,-0.233789,-0.091914,0.103775,0.525186,0.100321,-0.179784,0.119577,0.307139,-0.330833,-2.010324,-1.922439,-1.731618,-2.330153
0.410000,0.008011,0.058137,0.031575,-0.330281,0.020066,0.007747,-0.010001,-0.016271,-0.999818,0.000000,0.000000,0.000000,-0.016969,0.018236,0.136669,0.022166,0.045925,0.117393,0.149313,0.003227,-0.636890,-0.600679,-0.509262,-0.706989,0.054060,0.067683,0.201678,0.101324,0.092251,0.062722,1.694868,0.968902,0.309307,0.148312,1.780723,0.747384,-0.129103,0.027203,0.503294,0.045798,-0.345387,0.014891,0.580302,-0.029652,-2.040260,-1.876101,-1.755488,-2.402807
0.430000,0.026767,0.049505,0.004780,-0.192947,0.063565,0.034198,-0.008974,-0.007877,-0.999929,0.000000,0.000000,0.000000,-0.013546,0.021691,0.136981,0.021604,0.040610,0.118639,0.199408,0.045163,-0.643863,-0.599700,-0.460085,-0.667996,-0.083245,-0.011014,0.180568,0.114728,-0.049166,0.246236,2.373664,2.258030,0.296876,0.181408,2.103852,1.803187,-0.128523,-0.028007,0.485357,-0.019136,-0.473130,-0.157736,0.745944,0.164216,-2.035585,-1.883577,-1.634857,-2.359681
0.450000,0.024252,0.034327,-0.032501,-0.031961,0.077438,0.039314,-0.007330,-0.003420,-0.999967,0.000000,0.000000,0.000000,-0.013638,0.023009,0.138973,0.019947,0.032932,0.109826,0.251480,0.088811,-0.657210,-0.607773,-0.415326,-0.632779,-0.195471,-0.045147,0.214655,-0.007501,-0.185095,-0.515968,2.171596,1.799857,-0.392531,-0.381029,1.634272,1.197154,-0.114479,-0.059094,0.484348,-0.051802,-0.507900,-0.234342,0.882108,0.250362,-2.079443,-1.908064,-1.421296,-2.221991
0.470000,0.020240,0.034012,-0.048416,-0.241675,0.016545,0.021620,-0.006550,-0.000114,-0.999979,0.000000,0.000000,0.000000,-0.014391,0.023312,0.144545,0.018784,0.027851,0.105407,0.283107,0.105914,-0.669619,-0.617060,-0.387861,-0.621841,0.052193,0.123893,0.156117,-0.127774,-0.183963,0.084699,0.950600,0.193986,-0.354786,-0.041115,0.676446,-0.499734,-0.131468,-0.083183,0.487513,-0.068732,-0.440831,-0.154632,0.918097,0.232965,-2.133041,-1.970628,-1.179017,-2.058977
0.490000,0.002542,0.034227,-0.018451,-0.057997,-0.095865,0.014593,-0.007775,0.001994,-0.999968,0.000000,0.000000,0.000000,-0.016453,0.022179,0.146610,0.020157,0.023152,0.105897,0.283120,0.108380,-0.676572,-0.624228,-0.385619,-0.623288,-0.158204,-0.100723,0.165599,0.117423,-0.316060,-0.018141,-0.199756,-0.005647,-0.600806,-0.459703,-0.196772,-0.462078,-0.187716,-0.098207,0.468782,-0.051722,-0.220156,0.064067,0.802769,0.100693,-2.167053,-2.014844,-1.049183,-1.952225
0.510000,0.004976,0.014841,0.015855,0.079638,-0.033332,0.023644,-0.009019,-0.000192,-0.999959,0.000000,0.000000,0.000000,-0.021864,0.016992,0.151633,0.025421,0.021543,0.107519,0.282085,0.110446,-0.675789,-0.625070,-0.383028,-0.622913,-0.246268,-0.150626,0.178190,0.151842,-0.330406,-0.151102,0.020378,0.125825,-0.469360,-0.400758,0.311716,0.144348,-0.232754,-0.056877,0.454477,-0.008107,-0.001012,0.302341,0.611344,-0.075739,-2.221349,-2.034148,-1.043471,-1.892045
0.530000,0.013641,0.003349,0.023717,0.132280,0.030010,0.009692,-0.008948,-0.004670,-0.999949,0.000000,0.000000,0.000000,-0.026612,0.015118,0.157678,0.031117,0.036763,0.127902,0.280849,0.113032,-0.662005,-0.604580,-0.382070,-0.618579,-0.086064,0.160668,0.179801,0.142978,1.131896,1.327570,0.143337,0.214776,0.887317,1.302718,0.237492,0.538118,-0.276702,-0.023991,0.466804,0.054288,0.129019,0.473531,0.478637,-0.190308,-2.258276,-2.072660,-1.029874,-1.841102
0.550000,0.011619,0.016752,0.006202,0.004244,0.031928,-0.009524,-0.008322,-0.008413,-0.999930,0.000000,0.000000,0.000000,-0.031440,0.017563,0.163668,0.036391,0.071163,0.166486,0.274258,0.115201,-0.635212,-0.567385,-0.387190,-0.614515,-0.154105,0.220074,0.114166,0.079567,1.735270,1.791842,-0.172067,0.226401,1.110345,1.604368,-0.721332,0.351062,-0.310238,0.020684,0.481012,0.129216,0.224079,0.583554,0.359026,-0.268606,-2.217854,-2.007226,-1.020435,-1.812004
0.570000,0.007834,0.027174,-0.017464,-0.101583,0.032361,-0.022748,-0.007865,-0.008925,-0.999929,0.000000,0.000000,0.000000,-0.035061,0.023073,0.167656,0.041382,0.103653,0.201367,0.259620,0.112196,-0.613328,-0.536063,-0.400141,-0.615249,-0.115702,0.303584,0.079486,0.131427,1.302962,1.329826,-0.649567,-0.130108,0.623314,0.977317,-0.650810,-0.499608,-0.329398,0.066350,0.480848,0.176658,0.283749,0.651925,0.299956,-0.287386,-2.107237,-1.828058,-1.050671,-1.859582
0.590000,-0.001495,0.011033,-0.021636,0.070936,-0.015144,-0.015935,-0.007774,-0.009949,-0.999920,0.000000,0.000000,0.000000,-0.037620,0.025273,0.170429,0.047755,0.112832,0.217247,0.254055,0.104638,-0.608519,-0.523472,-0.407105,-0.621318,-0.143592,0.057063,0.068434,0.280506,-0.361765,0.371305,0.053295,-0.288391,-0.753011,-0.020741,0.346019,-0.355226,-0.367294,0.070183,0.448577,0.173267,0.239990,0.633443,0.378308,-0.199024,-1.972723,-1.634772,-1.120892,-1.971579
0.610000,-0.011746,0.003290,-0.011833,-0.097566,-0.078530,0.013399,-0.008847,-0.008754,-0.999923,0.000000,0.000000,0.000000,-0.036960,0.025990,0.169575,0.047289,0.112149,0.216123,0.254280,0.103854,-0.609822,-0.528618,-0.405771,-0.624839,0.071165,0.129969,-0.062920,-0.112886,-0.033960,-0.136456,-0.075704,-0.004143,-0.054046,-0.527769,-0.107295,-0.141183,-0.413089,0.026554,0.422685,0.107005,0.042230,0.494136,0.630169,-0.023657,-1.933487,-1.583594,-1.144140,-2.022400
0.630000,-0.006097,0.018023,-0.001718,-0.240965,-0.059164,-0.006634,-0.010312,-0.003029,-0.999942,0.000000,0.000000,0.000000,-0.031527,0.031308,0.163487,0.042140,0.111386,0.215446,0.255566,0.104363,-0.609730,-0.534003,-0.400605,-0.625395,0.203853,0.168537,-0.148597,-0.164025,0.066953,0.012648,-0.103635,-0.108568,0.331753,-0.109981,-0.464955,-0.421774,-0.396151,-0.038256,0.404311,0.046040,-0.102183,0.332566,0.819603,0.174057,-1.947149,-1.584522,-1.166676,-2.029139
0.650000,0.001673,0.031799,0.008952,-0.237753,-0.037189,-0.004442,-0.011290,0.003655,-0.999930,0.000000,0.000000,0.000000,-0.027295,0.035649,0.157516,0.037807,0.107183,0.215893,0.256953,0.106346,-0.613277,-0.537121,-0.393928,-0.621648,0.094048,0.077776,-0.064920,-0.075923,-0.068458,0.108951,-0.224200,-0.106576,-0.073067,0.159428,-0.219912,-0.141189,-0.390360,-0.079094,0.372925,-0.029376,-0.184610,0.253847,0.926305,0.293015,-1.945086,-1.573386,-1.182521,-2.051120
0.670000,0.005886,0.038300,0.017809,-0.253137,-0.031491,0.002194,-0.011989,0.010089,-0.999877,0.000000,0.000000,0.000000,-0.024628,0.038648,0.152816,0.034698,0.101737,0.217151,0.258290,0.109434,-0.617741,-0.538325,-0.386442,-0.615231,0.058047,0.065724,-0.037924,-0.057363,-0.120080,0.150855,-0.261345,-0.079910,-0.262443,0.265880,-0.165595,-0.121734,-0.381574,-0.103037,0.348092,-0.088529,-0.234077,0.234668,0.988842,0.349543,-1.950104,-1.561263,-1.187046,-2.069551
0.690000,0.011689,0.035694,0.021803,-0.145992,-0.016851,0.026663,-0.012543,0.015269,-0.999805,0.000000,0.000000,0.000000,-0.024128,0.040365,0.147639,0.032810,0.096190,0.218941,0.268037,0.113450,-0.621890,-0.537745,-0.373617,-0.607531,-0.097521,-0.006407,-0.178776,0.007557,-0.128889,0.182748,0.641341,-0.030859,-0.264532,0.391423,0.410328,-0.163213,-0.376559,-0.122706,0.326773,-0.126931,-0.262461,0.230214,1.023095,0.382947,-1.960168,-1.551458,-1.182622,-2.071077
0.710000,0.022015,0.032343,0.012821,-0.058115,0.011894,0.032633,-0.012572,0.018000,-0.999759,0.000000,0.000000,0.000000,-0.026237,0.039913,0.141864,0.033080,0.090377,0.221312,0.286941,0.117883,-0.627166,-0.535687,-0.355116,-0.599961,-0.180161,-0.055912,-0.205598,0.082913,-0.133038,0.263948,0.885979,-0.009263,-0.150998,0.384229,0.582438,-0.214573,-0.347096,-0.151586,0.317233,-0.143148,-0.277898,0.207281,1.060256,0.411974,-1.985080,-1.566830,-1.127102,-2.052746
0.730000,0.026213,0.034890,-0.002004,-0.097756,0.024718,0.031729,-0.012101,0.019932,-0.999728,0.000000,0.000000,0.000000,-0.028830,0.038833,0.138501,0.034047,0.086664,0.223717,0.302323,0.122338,-0.632997,-0.534071,-0.341532,-0.593456,-0.131753,-0.003812,-0.086861,0.047400,-0.090578,0.296146,0.495738,-0.008458,-0.184947,0.395370,0.042664,-0.416950,-0.320273,-0.174443,0.318486,-0.138240,-0.251970,0.208479,1.075123,0.415415,-2.011758,-1.590779,-1.043975,-2.021895
0.750000,0.015066,0.034664,-0.006408,-0.131092,-0.011880,0.011954,-0.012012,0.021687,-0.999693,0.000000,0.000000,0.000000,-0.031348,0.037262,0.139429,0.035587,0.082844,0.225677,0.304485,0.125963,-0.638993,-0.534558,-0.337719,-0.589217,-0.062025,-0.002954,0.119478,0.033709,-0.110529,0.189845,-0.302508,-0.039149,-0.080751,-0.002167,-0.566298,-0.424620,-0.324874,-0.183108,0.314053,-0.126084,-0.196776,0.254396,1.044356,0.378162,-2.019456,-1.589265,-0.986170,-1.993159
0.770000,0.007035,0.023998,-0.002461,-0.041146,-0.005731,0.017938,-0.012106,0.022481,-0.999674,0.000000,0.000000,0.000000,-0.034145,0.035283,0.141873,0.037517,0.080451,0.226488,0.303408,0.128223,-0.643074,-0.536133,-0.336801,-0.586914,-0.123127,-0.066672,0.164867,0.046861,-0.068016,0.061666,-0.209537,-0.054942,-0.112268,0.071048,-0.420747,-0.476681,-0.351095,-0.179125,0.310172,-0.114281,-0.147675,0.315234,0.998010,0.348713,-2.032749,-1.571590,-0.981348,-1.973596
0.790000,0.004221,0.014285,0.001375,-0.011751,-0.003444,0.017075,-0.012175,0.022316,-0.999677,0.000000,0.000000,0.000000,-0.036886,0.033299,0.144385,0.039478,0.079273,0.226864,0.302854,0.129636,-0.645090,-0.536906,-0.335967,-0.585080,-0.100024,-0.047747,0.140903,0.046030,-0.031403,0.031453,-0.177009,-0.097477,-0.047127,0.040921,-0.378473,-0.395012,-0.363968,-0.178965,0.313879,-0.095638,-0.126446,0.355621,0.971318,0.337486,-2.057096,-1.580010,-0.968493,-1.959268
0.810000,0.003398,0.007778,0.003614,0.007806,-0.000451,0.007576,-0.012196,0.021795,-0.999688,0.000000,0.000000,0.000000,-0.038902,0.031581,0.146257,0.041149,0.078648,0.227300,0.302569,0.130566,-0.645801,-0.536804,-0.335301,-0.583715,-0.068879,-0.049138,0.106457,0.048934,-0.023095,0.033104,-0.149012,-0.111829,-0.025690,0.059493,-0.344767,-0.394048,-0.372186,-0.177461,0.321265,-0.074875,-0.099878,0.383512,0.943676,0.327341,-2.077981,-1.599542,-0.956659,-1.939857
0.830000,0.002241,0.002839,0.003811,0.026564,0.000264,0.004989,-0.012188,0.020925,-0.999707,0.000000,0.000000,0.000000,-0.040501,0.029935,0.147791,0.042744,0.078355,0.227774,0.302394,0.131153,-0.645735,-0.536183,-0.334976,-0.582751,-0.059944,-0.046610,0.091210,0.047941,-0.024660,0.024236,-0.123495,-0.115980,-0.047418,0.052913,-0.300307,-0.382304,-0.379506,-0.171796,0.328754,-0.055789,-0.069270,0.411641,0.911277,0.306862,-2.091668,-1.616521,-0.945947,-1.923934
0.850000,0.001074,-0.001536,0.002692,0.042617,-0.001068,0.004191,-0.012196,0.019732,-0.999731,0.000000,0.000000,0.000000,-0.041907,0.028411,0.149202,0.044238,0.078304,0.228178,0.302212,0.131416,-0.645207,-0.535405,-0.335052,-0.582438,-0.054752,-0.041116,0.079515,0.043450,-0.031836,0.008961,-0.101809,-0.115975,-0.083522,0.018215,-0.256857,-0.370667,-0.384215,-0.164385,0.335864,-0.036102,-0.040098,0.441060,0.877586,0.280378,-2.099975,-1.629159,-0.936761,-1.909447
0.870000,0.000308,-0.005524,0.001190,0.054516,-0.002910,0.003283,-0.012242,0.018316,-0.999757,0.000000,0.000000,0.000000,-0.043078,0.027096,0.150442,0.045557,0.078393,0.228527,0.301940,0.131409,-0.644397,-0.534622,-0.335590,-0.582817,-0.046785,-0.033336,0.065718,0.036198,-0.043479,-0.004425,-0.084951,-0.113865,-0.124967,-0.021051,-0.220205,-0.361312,-0.387243,-0.155561,0.343034,-0.016427,-0.013480,0.468644,0.844701,0.252495,-2.104567,-1.639335,-0.928969,-1.895442
0.890000,-0.000106,-0.009084,-0.000098,0.063907,-0.004238,0.002595,-0.012326,0.016746,-0.999784,0.000000,0.000000,0.000000,-0.043982,0.026017,0.151472,0.046666,0.078550,0.228862,0.301546,0.131197,-0.643400,-0.533834,-0.336585,-0.583794,-0.038658,-0.024770,0.052102,0.027730,-0.057017,-0.014934,-0.070504,-0.109564,-0.168501,-0.054902,-0.186136,-0.349443,-0.388734,-0.145350,0.350474,0.002741,0.011218,0.494085,0.813058,0.224430,-2.106751,-1.648401,-0.922692,-1.882397
0.910000,-0.000297,-0.012156,-0.000931,0.071792,-0.004656,0.002085,-0.012429,0.015054,-0.999809,0.000000,0.000000,0.000000,-0.044641,0.025161,0.152304,0.047574,0.078757,0.229214,0.301029,0.130840,-0.642247,-0.532973,-0.337994,-0.585222,-0.031720,-0.017053,0.039895,0.019575,-0.070550,-0.023366,-0.056199,-0.103306,-0.211695,-0.081627,-0.151317,-0.331801,-0.388351,-0.133688,0.358455,0.021545,0.034706,0.518292,0.782345,0.196341,-2.107465,-1.657010,-0.918063,-1.870487
0.930000,-0.000350,-0.014723,-0.001308,0.078501,-0.003954,0.002097,-0.012530,0.013263,-0.999834,0.000000,0.000000,0.000000,-0.045103,0.024506,0.152978,0.048294,0.079016,0.229587,0.300415,0.130384,-0.640959,-0.531972,-0.339739,-0.586948,-0.027075,-0.010101,0.030286,0.011650,-0.082980,-0.031165,-0.041952,-0.095309,-0.254015,-0.102846,-0.116358,-0.307534,-0.386265,-0.120522,0.367243,0.039888,0.057218,0.541893,0.752785,0.168466,-2.107276,-1.665196,-0.915233,-1.859797
0.950000,-0.000263,-0.016809,-0.001326,0.083122,-0.002356,0.002743,-0.012609,0.011397,-0.999856,0.000000,0.000000,0.000000,-0.045413,0.024030,0.153530,0.048838,0.079330,0.229990,0.299726,0.129870,-0.639565,-0.530771,-0.341749,-0.588835,-0.023660,-0.002411,0.021475,0.002828,-0.094457,-0.038273,-0.025244,-0.085437,-0.295307,-0.119112,-0.073513,-0.277421,-0.382782,-0.106279,0.376650,0.057466,0.078444,0.564734,0.724682,0.141576,-2.106385,-1.672506,-0.914126,-1.850404
0.970000,-0.000240,-0.018552,-0.001014,0.087844,-0.001280,0.003052,-0.012661,0.009468,-0.999875,0.000000,0.000000,0.000000,-0.045614,0.023707,0.153989,0.049229,0.079681,0.230422,0.298996,0.129327,-0.638152,-0.529347,-0.343919,-0.590791,-0.023347,0.002794,0.014649,-0.003646,-0.119076,-0.043556,-0.009726,-0.075952,-0.390099,-0.130894,-0.033856,-0.247767,-0.378244,-0.091657,0.386356,0.073884,0.097756,0.585883,0.698796,0.116572,-2.104821,-1.678599,-0.914668,-1.842447
0.990000,-0.000554,-0.019849,-0.000435,0.088054,-0.001740,0.003364,-0.012718,0.007531,-0.999891,0.000000,0.000000,0.000000,-0.045672,0.023553,0.154307,0.049446,0.080113,0.230865,0.298278,0.128760,-0.636527,-0.527782,-0.346089,-0.592789,-0.018153,0.009647,0.004151,-0.012615,-0.130838,-0.039402,0.008074,-0.066555,-0.420975,-0.102351,0.013045,-0.217496,-0.373360,-0.076754,0.396087,0.088450,0.114588,0.605428,0.674957,0.092266,-2.102283,-1.683315,-0.915892,-1.835269
1.010000,-0.000457,-0.020509,-0.000080,0.091936,0.001479,0.001696,-0.012748,0.005566,-0.999903,0.000000,0.000000,0.000000,-0.045645,0.023450,0.154549,0.049606,0.080625,0.231218,0.297604,0.128143,-0.634781,-0.526409,-0.348291,-0.594779,-0.016768,0.006277,-0.000801,-0.010518,-0.138587,-0.047125,0.025800,-0.060209,-0.450075,-0.119659,0.049018,-0.185203,-0.367871,-0.062541,0.405789,0.101546,0.130305,0.623173,0.653736,0.070437,-2.100263,-1.686627,-0.919108,-1.830353
1.030000,-0.000123,-0.020321,0.000240,0.088277,0.005249,-0.000672,-0.012708,0.003665,-0.999913,0.000000,0.000000,0.000000,-0.045477,0.023392,0.154655,0.049702,0.081160,0.231584,0.296978,0.127504,-0.633087,-0.524870,-0.350570,-0.596602,-0.009846,0.005880,-0.010677,-0.011053,-0.147664,-0.049929,0.040789,-0.054505,-0.482134,-0.124948,0.077966,-0.154361,-0.362589,-0.049228,0.414269,0.112697,0.143099,0.636723,0.636068,0.053363,-2.096805,-1.688859,-0.922667,-1.827291
1.050000,-0.000028,-0.019516,0.000419,0.083010,0.007424,-0.002255,-0.012614,0.001892,-0.999919,0.000000,0.000000,0.000000,-0.045175,0.023366,0.154619,0.049748,0.081692,0.231944,0.296425,0.126860,-0.631496,-0.523283,-0.352830,-0.598236,-0.005463,0.005163,-0.017392,-0.011013,-0.154232,-0.052683,0.053591,-0.049306,-0.505829,-0.130777,0.104876,-0.128198,-0.357665,-0.037624,0.421278,0.121527,0.152550,0.646529,0.622700,0.039989,-2.092413,-1.689058,-0.927530,-1.826829
1.070000,-0.000111,-0.018206,0.000374,0.075158,0.008542,-0.003030,-0.012493,0.000293,-0.999922,0.000000,0.000000,0.000000,-0.044770,0.023390,0.154464,0.049733,0.082218,0.232261,0.295959,0.126211,-0.630020,-0.521772,-0.354972,-0.599718,-0.001882,0.006019,-0.022328,-0.012121,-0.157922,-0.055907,0.063378,-0.046252,-0.521200,-0.137934,0.126525,-0.111074,-0.352658,-0.028208,0.426798,0.128185,0.158025,0.652277,0.614287,0.030752,-2.087634,-1.687333,-0.933639,-1.828319
1.090000,-0.000269,-0.016452,0.000126,0.065284,0.009055,-0.003411,-0.012359,-0.001084,-0.999923,0.000000,0.000000,0.000000,-0.044274,0.023480,0.154196,0.049644,0.082721,0.232511,0.295587,0.125568,-0.628716,-0.520432,-0.356937,-0.601063,0.001062,0.007247,-0.025882,-0.013399,-0.159583,-0.058611,0.070289,-0.045092,-0.530177,-0.143955,0.142178,-0.101429,-0.347729,-0.021053,0.430823,0.132651,0.159433,0.653856,0.610845,0.025830,-2.082522,-1.684110,-0.940608,-1.831535
1.110000,-0.000460,-0.014335,-0.000278,0.054189,0.009031,-0.003496,-0.012225,-0.002212,-0.999923,0.000000,0.000000,0.000000,-0.043709,0.023633,0.153831,0.049489,0.083179,0.232676,0.295305,0.124933,-0.627631,-0.519340,-0.358699,-0.602282,0.003071,0.008253,-0.027494,-0.014239,-0.159615,-0.060699,0.073357,-0.045716,-0.533399,-0.149221,0.149166,-0.099261,-0.343017,-0.016047,0.433451,0.134948,0.157019,0.651518,0.612067,0.024974,-2.077242,-1.679787,-0.948081,-1.836403
1.130000,-0.000653,-0.011942,-0.000763,0.042222,0.008613,-0.003294,-0.012099,-0.003071,-0.999922,0.000000,0.000000,0.000000,-0.043095,0.023840,0.153388,0.049278,0.083582,0.232750,0.295119,0.124320,-0.626789,-0.518542,-0.360219,-0.603379,0.004134,0.009055,-0.027646,-0.014837,-0.158081,-0.061773,0.073705,-0.047627,-0.531019,-0.152232,0.150632,-0.103005,-0.338569,-0.013052,0.434825,0.135235,0.151189,0.645657,0.617476,0.027753,-2.071992,-1.674712,-0.955776,-1.842690
1.150000,-0.000825,-0.009362,-0.001263,0.029891,0.007940,-0.002793,-0.011986,-0.003657,-0.999922,0.000000,0.000000,0.000000,-0.042455,0.024091,0.152889,0.049024,0.083914,0.232730,0.295016,0.123739,-0.626216,-0.518067,-0.361489,-0.604347,0.004109,0.009607,-0.026000,-0.015093,-0.155227,-0.062054,0.070857,-0.050184,-0.523964,-0.153508,0.144986,-0.110636,-0.334418,-0.011948,0.435156,0.133699,0.142356,0.636743,0.626607,0.033732,-2.066973,-1.669224,-0.963460,-1.850151
1.170000,-0.000953,-0.006683,-0.001717,0.017483,0.007153,-0.002007,-0.011889,-0.003971,-0.999921,0.000000,0.000000,0.000000,-0.041818,0.024378,0.152361,0.048739,0.084168,0.232623,0.294990,0.123205,-0.625915,-0.517908,-0.362492,-0.605175,0.003145,0.010024,-0.022948,-0.015286,-0.151025,-0.061234,0.065484,-0.053584,-0.512209,-0.151710,0.133954,-0.122561,-0.330587,-0.012562,0.434626,0.130545,0.130995,0.625287,0.638894,0.042494,-2.062361,-1.663599,-0.970961,-1.858472
1.190000,-0.001024,-0.003980,-0.002079,0.005344,0.006364,-0.001013,-0.011810,-0.004022,-0.999922,0.000000,0.000000,0.000000,-0.041203,0.024691,0.151824,0.048430,0.084339,0.232435,0.295035,0.122735,-0.625886,-0.518054,-0.363218,-0.605844,0.001372,0.010276,-0.018746,-0.015306,-0.145720,-0.059494,0.058139,-0.057220,-0.496533,-0.147426,0.118727,-0.136538,-0.327172,-0.014765,0.433398,0.125912,0.117552,0.611801,0.653854,0.053648,-2.058309,-1.658033,-0.978098,-1.867390
1.210000,-0.001037,-0.001304,-0.002330,-0.006562,0.005622,0.000184,-0.011743,-0.003819,-0.999924,0.000000,0.000000,0.000000,-0.040628,0.025023,0.151296,0.048103,0.084428,0.232175,0.295144,0.122337,-0.626123,-0.518474,-0.363666,-0.606335,-0.000950,0.010688,-0.013772,-0.015451,-0.139513,-0.056799,0.049062,-0.061179,-0.477694,-0.140347,0.099784,-0.152700,-0.324264,-0.018422,0.431587,0.119929,0.102465,0.596741,0.671010,0.066846,-2.054965,-1.652745,-0.984709,-1.876607
1.230000,-0.001000,0.001293,-0.002464,-0.017898,0.004890,0.001525,-0.011690,-0.003373,-0.999926,0.000000,0.000000,0.000000,-0.040105,0.025377,0.150790,0.047757,0.084439,0.231856,0.295309,0.122028,-0.626610,-0.519130,-0.363837,-0.606629,-0.003767,0.011024,-0.008028,-0.015591,-0.132358,-0.053187,0.038455,-0.065161,-0.455367,-0.130551,0.077479,-0.169961,-0.321969,-0.023421,0.429252,0.112695,0.086159,0.580575,0.689887,0.081694,-2.052417,-1.647813,-0.990683,-1.885901
1.250000,-0.000907,0.003751,-0.002479,-0.028346,0.004167,0.003010,-0.011648,-0.002700,-0.999929,0.000000,0.000000,0.000000,-0.039646,0.025749,0.150317,0.047392,0.084370,0.231492,0.295520,0.121819,-0.627328,-0.519987,-0.363735,-0.606707,-0.007144,0.011317,-0.001487,-0.015673,-0.124733,-0.048823,0.026327,-0.068710,-0.430911,-0.118705,0.051917,-0.186990,-0.320387,-0.029593,0.426432,0.104296,0.069076,0.563800,0.710014,0.097851,-2.050727,-1.643249,-0.995910,-1.895063
1.270000,-0.000743,0.006020,-0.002347,-0.037914,0.003335,0.004584,-0.011620,-0.001818,-0.999931,0.000000,0.000000,0.000000,-0.039259,0.026140,0.149887,0.047009,0.084227,0.231099,0.295771,0.121724,-0.628245,-0.521003,-0.363352,-0.606563,-0.010703,0.011797,0.005224,-0.015924,-0.116914,-0.043752,0.013333,-0.071894,-0.404265,-0.105813,0.025634,-0.204593,-0.319613,-0.036712,0.423161,0.094893,0.051681,0.547040,0.730836,0.114895,-2.049911,-1.639038,-1.000198,-1.903796
1.290000,-0.000462,0.008013,-0.002052,-0.045700,0.002485,0.005971,-0.011605,-0.000765,-0.999932,0.000000,0.000000,0.000000,-0.038956,0.026533,0.149509,0.046624,0.084003,0.230711,0.296041,0.121758,-0.629326,-0.522113,-0.362708,-0.606187,-0.014522,0.011412,0.012208,-0.015400,-0.109822,-0.037301,-0.000155,-0.074177,-0.377313,-0.090578,-0.001682,-0.220928,-0.319634,-0.044655,0.419398,0.084800,0.034604,0.530757,0.751454,0.132287,-2.049871,-1.635171,-1.003443,-1.911779
1.310000,-0.000133,0.009666,-0.001607,-0.051713,0.001493,0.007117,-0.011606,0.000420,-0.999933,0.000000,0.000000,0.000000,-0.038738,0.026910,0.149188,0.046253,0.083704,0.230356,0.296318,0.121929,-0.630517,-0.523261,-0.361829,-0.605577,-0.018095,0.010499,0.018754,-0.014404,-0.103246,-0.029997,-0.013310,-0.075728,-0.349903,-0.074139,-0.027507,-0.235721,-0.320465,-0.053155,0.415185,0.074374,0.018579,0.515483,0.771039,0.149396,-2.050617,-1.631769,-1.005570,-1.918765
1.330000,0.000199,0.010914,-0.001059,-0.055746,0.000499,0.008099,-0.011623,0.001691,-0.999931,0.000000,0.000000,0.000000,-0.038612,0.027249,0.148932,0.045914,0.083339,0.230051,0.296591,0.122232,-0.631763,-0.524400,-0.360747,-0.604751,-0.021489,0.009371,0.024835,-0.013188,-0.097246,-0.022745,-0.025548,-0.076704,-0.323702,-0.058018,-0.051153,-0.248430,-0.322033,-0.061850,0.410687,0.064069,0.004187,0.501828,0.788900,0.165545,-2.052106,-1.628932,-1.006597,-1.924487
1.350000,0.000511,0.011713,-0.000471,-0.057523,-0.000337,0.008921,-0.011656,0.002998,-0.999928,0.000000,0.000000,0.000000,-0.038578,0.027540,0.148747,0.045621,0.082927,0.229811,0.296854,0.122656,-0.633006,-0.525474,-0.359502,-0.603738,-0.024771,0.007931,0.030480,-0.011678,-0.091239,-0.015799,-0.036295,-0.077444,-0.297955,-0.041925,-0.071855,-0.259236,-0.324238,-0.070390,0.406091,0.054331,-0.008141,0.490262,0.804457,0.180183,-2.054242,-1.626760,-1.006529,-1.928738
1.370000,0.000777,0.012043,0.000090,-0.057066,-0.000937,0.009624,-0.011699,0.004292,-0.999922,0.000000,0.000000,0.000000,-0.038636,0.027772,0.148641,0.045382,0.082485,0.229635,0.297099,0.123174,-0.634215,-0.526457,-0.358153,-0.602585,-0.027947,0.006404,0.035766,-0.010135,-0.085943,-0.009889,-0.045829,-0.078314,-0.275741,-0.027490,-0.090961,-0.268707,-0.326977,-0.078480,0.401552,0.045507,-0.018047,0.481064,0.817308,0.192938,-2.056938,-1.625280,-1.005406,-1.931472
1.390000,0.000952,0.011907,0.000583,-0.054646,-0.001379,0.010140,-0.011750,0.005529,-0.999916,0.000000,0.000000,0.000000,-0.038783,0.027943,0.148615,0.045201,0.082036,0.229517,0.297325,0.123756,-0.635351,-0.527323,-0.356749,-0.601347,-0.030616,0.004948,0.040211,-0.008642,-0.081307,-0.005296,-0.053491,-0.079414,-0.257281,-0.015311,-0.107229,-0.276690,-0.330180,-0.085866,0.397188,0.037863,-0.025359,0.474339,0.827218,0.203489,-2.060053,-1.624502,-1.003290,-1.932701
1.410000,0.001014,0.011337,0.000976,-0.050425,-0.001682,0.010441,-0.011804,0.006665,-0.999908,0.000000,0.000000,0.000000,-0.039010,0.028048,0.148670,0.045082,0.081606,0.229445,0.297530,0.124368,-0.636375,-0.528065,-0.355342,-0.600087,-0.032487,0.003715,0.043574,-0.007276,-0.075410,-0.002232,-0.058798,-0.081173,-0.239535,-0.006045,-0.119435,-0.284148,-0.333736,-0.092354,0.393150,0.031577,-0.030043,0.470054,0.834116,0.211652,-2.063475,-1.624420,-1.000314,-1.932530
1.430000,0.001018,0.010413,0.001229,-0.044852,-0.001690,0.010537,-0.011860,0.007670,-0.999900,0.000000,0.000000,0.000000,-0.039303,0.028090,0.148797,0.045024,0.081211,0.229408,0.297714,0.124972,-0.637269,-0.528683,-0.353992,-0.598867,-0.033622,0.002616,0.046160,-0.006086,-0.069096,-0.000531,-0.062734,-0.083405,-0.225572,0.000632,-0.130337,-0.290955,-0.337468,-0.097845,0.389576,0.026788,-0.032177,0.468020,0.838080,0.217471,-2.067094,-1.625013,-0.996629,-1.931121
1.450000,0.000982,0.009212,0.001335,-0.038498,-0.001453,0.010565,-0.011912,0.008524,-0.999893,0.000000,0.000000,0.000000,-0.039645,0.028075,0.148986,0.045024,0.080858,0.229398,0.297870,0.125546,-0.638030,-0.529176,-0.352750,-0.597731,-0.033519,0.001924,0.047635,-0.005357,-0.059482,-0.000154,-0.064981,-0.085381,-0.191178,0.004464,-0.138113,-0.295617,-0.341289,-0.102228,0.386509,0.023517,-0.031940,0.468078,0.839216,0.220896,-2.070712,-1.626185,-0.992403,-1.928723
1.470000,0.000902,0.007828,0.001282,-0.030664,-0.000981,0.010089,-0.011950,0.009212,-0.999886,0.000000,0.000000,0.000000,-0.040026,0.028008,0.149233,0.045075,0.080551,0.229402,0.297991,0.126064,-0.638704,-0.529548,-0.351688,-0.596717,-0.034872,-0.000103,0.048856,-0.003170,-0.062431,0.000331,-0.065840,-0.088527,-0.209776,0.009054,-0.144713,-0.301557,-0.344874,-0.105696,0.383991,0.021785,-0.029377,0.469664,0.838041,0.222814,-2.074517,-1.627944,-0.988124,-1.925678
1.490000,0.000637,0.006231,0.001244,-0.023555,-0.001519,0.009884,-0.011996,0.009725,-0.999881,0.000000,0.000000,0.000000,-0.040423,0.027896,0.149516,0.045175,0.080312,0.229410,0.298090,0.126500,-0.639190,-0.529849,-0.350764,-0.595896,-0.033402,0.000322,0.047890,-0.003512,-0.056767,-0.001837,-0.065029,-0.090340,-0.188041,0.005094,-0.145411,-0.304813,-0.348751,-0.107698,0.382088,0.021105,-0.025659,0.473372,0.834441,0.221317,-2.077579,-1.629925,-0.983232,-1.921929
1.510000,0.000518,0.004628,0.001069,-0.015621,-0.000816,0.009218,-0.012036,0.010062,-0.999877,0.000000,0.000000,0.000000,-0.040823,0.027744,0.149826,0.045319,0.080134,0.229423,0.298160,0.126851,-0.639537,-0.530057,-0.350034,-0.595258,-0.032471,-0.000935,0.047099,-0.002121,-0.054009,-0.004816,-0.063211,-0.092712,-0.178502,-0.000824,-0.146440,-0.306987,-0.351810,-0.108849,0.380999,0.022100,-0.019957,0.478041,0.829040,0.218658,-2.080930,-1.632584,-0.978826,-1.917722
1.530000,0.000395,0.003040,0.000851,-0.008395,-0.000377,0.008510,-0.012065,0.010233,-0.999875,0.000000,0.000000,0.000000,-0.041210,0.027560,0.150150,0.045496,0.080007,0.229442,0.298194,0.127115,-0.639779,-0.530171,-0.349525,-0.594800,-0.031065,-0.001435,0.045141,-0.001474,-0.054661,-0.007145,-0.060532,-0.094197,-0.180870,-0.005634,-0.144412,-0.307375,-0.354597,-0.108887,0.380462,0.024172,-0.013108,0.483766,0.821976,0.214469,-2.083698,-1.635549,-0.974507,-1.913410
1.550000,0.000173,0.001433,0.000694,-0.000877,-0.000690,0.007677,-0.012094,0.010243,-0.999874,0.000000,0.000000,0.000000,-0.041578,0.027342,0.150479,0.045712,0.079933,0.229466,0.298198,0.127288,-0.639883,-0.530219,-0.349203,-0.594543,-0.029866,-0.002379,0.042719,-0.000476,-0.057034,-0.009808,-0.056291,-0.095030,-0.189146,-0.012951,-0.137343,-0.306689,-0.356987,-0.107940,0.380551,0.027183,-0.005519,0.490433,0.813627,0.208492,-2.085963,-1.638622,-0.970504,-1.909014
1.570000,-0.000062,-0.000127,0.000594,0.006086,-0.000992,0.006806,-0.012131,0.010101,-0.999875,0.000000,0.000000,0.000000,-0.041912,0.027100,0.150795,0.045956,0.079918,0.229500,0.298181,0.127375,-0.639819,-0.530202,-0.349041,-0.594482,-0.028220,-0.002998,0.039584,0.000170,-0.059506,-0.012694,-0.050966,-0.095174,-0.197896,-0.020805,-0.127574,-0.303620,-0.358757,-0.106072,0.381362,0.031125,0.002701,0.497829,0.804254,0.200981,-2.087875,-1.641925,-0.966889,-1.904465
1.590000,-0.000226,-0.001587,0.000509,0.012512,-0.000862,0.005977,-0.012170,0.009817,-0.999878,0.000000,0.000000,0.000000,-0.042210,0.026839,0.151097,0.046223,0.079959,0.229542,0.298144,0.127379,-0.639601,-0.530113,-0.349037,-0.594596,-0.026618,-0.003446,0.036253,0.000559,-0.062476,-0.015656,-0.044881,-0.094638,-0.208736,-0.028420,-0.115896,-0.298116,-0.359851,-0.103330,0.382822,0.035971,0.011545,0.505858,0.793947,0.192316,-2.089375,-1.645477,-0.963747,-1.899924
1.610000,-0.000345,-0.002937,0.000439,0.018432,-0.000654,0.005128,-0.012207,0.009407,-0.999881,0.000000,0.000000,0.000000,-0.042469,0.026564,0.151380,0.046505,0.080045,0.229596,0.298086,0.127312,-0.639269,-0.529945,-0.349190,-0.594859,-0.025458,-0.003941,0.032737,0.000947,-0.069277,-0.018425,-0.038148,-0.093166,-0.234292,-0.035978,-0.102095,-0.290215,-0.360352,-0.099793,0.384799,0.041567,0.020828,0.514358,0.782913,0.182761,-2.090342,-1.649144,-0.961068,-1.895510
1.630000,-0.000509,-0.004214,0.000455,0.023984,-0.000966,0.004295,-0.012247,0.008881,-0.999886,0.000000,0.000000,0.000000,-0.042686,0.026278,0.151640,0.046800,0.080175,0.229664,0.298011,0.127180,-0.638802,-0.529706,-0.349469,-0.595263,-0.024436,-0.004334,0.028865,0.001231,-0.077554,-0.021079,-0.030704,-0.091002,-0.264983,-0.044302,-0.085141,-0.281291,-0.360392,-0.095486,0.387234,0.047687,0.030230,0.523308,0.771300,0.172105,-2.090672,-1.652766,-0.958737,-1.891146
1.650000,-0.000676,-0.005408,0.000552,0.029067,-0.001276,0.003538,-0.012296,0.008249,-0.999890,0.000000,0.000000,0.000000,-0.042862,0.025985,0.151872,0.047104,0.080353,0.229750,0.297927,0.126992,-0.638185,-0.529397,-0.349839,-0.595792,-0.023573,-0.004495,0.024802,0.001226,-0.086953,-0.023777,-0.022247,-0.088130,-0.300759,-0.052522,-0.065170,-0.270235,-0.359872,-0.090556,0.390140,0.054278,0.039778,0.532553,0.759279,0.160588,-2.090571,-1.656352,-0.956824,-1.886776
1.670000,-0.000768,-0.006458,0.000664,0.033029,-0.001026,0.003038,-0.012348,0.007527,-0.999895,0.000000,0.000000,0.000000,-0.042995,0.025700,0.152072,0.047403,0.080574,0.229850,0.297836,0.126756,-0.637436,-0.529008,-0.350291,-0.596418,-0.022170,-0.003890,0.020626,0.000347,-0.093026,-0.026686,-0.013568,-0.084508,-0.317227,-0.059993,-0.044650,-0.256518,-0.358843,-0.085073,0.393471,0.061222,0.049388,0.541995,0.747065,0.148490,-2.090040,-1.659899,-0.955269,-1.882493
1.690000,-0.000688,-0.007281,0.000654,0.036078,0.000299,0.002671,-0.012382,0.006741,-0.999901,0.000000,0.000000,0.000000,-0.043091,0.025435,0.152251,0.047680,0.080831,0.229956,0.297728,0.126485,-0.636628,-0.528531,-0.350861,-0.597095,-0.021290,-0.003247,0.017260,-0.000576,-0.100232,-0.029503,-0.005971,-0.080837,-0.338238,-0.065969,-0.027717,-0.241847,-0.357282,-0.079342,0.397036,0.068385,0.059067,0.551178,0.735160,0.136913,-2.089282,-1.663271,-0.954368,-1.878687
1.710000,-0.000586,-0.007898,0.000582,0.037959,0.001412,0.002403,-0.012393,0.005919,-0.999906,0.000000,0.000000,0.000000,-0.043147,0.025205,0.152401,0.047920,0.081101,0.230069,0.297599,0.126188,-0.635817,-0.527978,-0.351546,-0.597803,-0.020399,-0.002272,0.013721,-0.001842,-0.108105,-0.032110,0.001797,-0.076802,-0.360540,-0.072400,-0.009349,-0.227353,-0.355600,-0.073472,0.400548,0.075276,0.068113,0.559822,0.723932,0.125937,-2.087930,-1.666067,-0.953886,-1.875487
1.730000,-0.000454,-0.008273,0.000458,0.038210,0.002426,0.002187,-0.012386,0.005086,-0.999910,0.000000,0.000000,0.000000,-0.043158,0.025016,0.152514,0.048119,0.081380,0.230187,0.297450,0.125876,-0.635009,-0.527379,-0.352321,-0.598530,-0.018885,-0.000597,0.010222,-0.003775,-0.115477,-0.034439,0.007725,-0.072788,-0.384579,-0.078877,0.004833,-0.213734,-0.353771,-0.067738,0.403981,0.081618,0.076091,0.567514,0.713893,0.115803,-2.086200,-1.668141,-0.953938,-1.872873
1.750000,-0.000433,-0.008458,0.000385,0.038406,0.002720,0.001862,-0.012368,0.004266,-0.999914,0.000000,0.000000,0.000000,-0.043124,0.024867,0.152587,0.048275,0.081656,0.230306,0.297288,0.125557,-0.634225,-0.526763,-0.353156,-0.599266,-0.017387,-0.000042,0.007506,-0.004493,-0.116768,-0.036418,0.013666,-0.069413,-0.392494,-0.085339,0.019715,-0.202477,-0.351838,-0.062281,0.407201,0.087268,0.082762,0.574012,0.705235,0.106784,-2.084108,-1.669438,-0.954579,-1.870958
1.770000,-0.000421,-0.008422,0.000325,0.037047,0.003114,0.001554,-0.012344,0.003477,-0.999918,0.000000,0.000000,0.000000,-0.043043,0.024755,0.152612,0.048395,0.081923,0.230421,0.297128,0.125232,-0.633477,-0.526156,-0.354009,-0.599997,-0.015839,0.000963,0.004345,-0.005652,-0.122592,-0.038151,0.018989,-0.066847,-0.407381,-0.090555,0.032728,-0.192958,-0.349607,-0.057385,0.410227,0.092173,0.088145,0.578997,0.698333,0.099540,-2.082094,-1.670088,-0.955949,-1.869807
1.790000,-0.000442,-0.008154,0.000259,0.034659,0.003547,0.001423,-0.012313,0.002747,-0.999920,0.000000,0.000000,0.000000,-0.042912,0.024691,0.152585,0.048465,0.082191,0.230521,0.296983,0.124904,-0.632760,-0.525575,-0.354846,-0.600703,-0.014352,0.002165,0.001927,-0.006975,-0.125117,-0.039854,0.023491,-0.064997,-0.416895,-0.094550,0.043387,-0.185153,-0.347395,-0.053086,0.412890,0.096114,0.091895,0.582535,0.693318,0.093804,-2.079903,-1.670193,-0.957755,-1.869458
1.810000,-0.000442,-0.007664,0.000163,0.031508,0.003984,0.001367,-0.012274,0.002091,-0.999923,0.000000,0.000000,0.000000,-0.042740,0.024668,0.152514,0.048491,0.082449,0.230600,0.296858,0.124577,-0.632110,-0.525039,-0.355651,-0.601370,-0.013268,0.003100,0.000223,-0.007993,-0.127111,-0.041125,0.026886,-0.063701,-0.424595,-0.097488,0.051586,-0.179437,-0.345120,-0.049452,0.415140,0.099168,0.094093,0.584574,0.690133,0.089791,-2.077629,-1.669737,-0.959994,-1.869911
1.830000,-0.000440,-0.006979,0.000037,0.027501,0.004258,0.001385,-0.012230,0.001526,-0.999924,0.000000,0.000000,0.000000,-0.042536,0.024685,0.152401,0.048477,0.082691,0.230653,0.296756,0.124261,-0.631543,-0.524571,-0.356404,-0.601982,-0.012338,0.003998,-0.001020,-0.008950,-0.128480,-0.041931,0.029074,-0.062669,-0.429927,-0.099513,0.057208,-0.175171,-0.342890,-0.046546,0.416918,0.101271,0.094749,0.585073,0.688819,0.087450,-2.075283,-1.668757,-0.962544,-1.871139
1.850000,-0.000452,-0.006140,-0.000110,0.023057,0.004347,0.001472,-0.012183,0.001063,-0.999925,0.000000,0.000000,0.000000,-0.042305,0.024738,0.152253,0.048427,0.082906,0.230680,0.296678,0.123959,-0.631077,-0.524191,-0.357087,-0.602536,-0.011823,0.004590,-0.001486,-0.009571,-0.129188,-0.042479,0.029887,-0.062356,-0.432953,-0.101141,0.059640,-0.173636,-0.340749,-0.044427,0.418222,0.102419,0.093903,0.584055,0.689343,0.086746,-2.072944,-1.667317,-0.965349,-1.873077
1.870000,-0.000468,-0.005176,-0.000264,0.018118,0.004328,0.001698,-0.012137,0.000711,-0.999926,0.000000,0.000000,0.000000,-0.042054,0.024820,0.152074,0.048345,0.083096,0.230676,0.296629,0.123675,-0.630713,-0.523915,-0.357680,-0.603028,-0.011573,0.005317,-0.001434,-0.010192,-0.128845,-0.042642,0.029707,-0.062661,-0.432655,-0.101686,0.060025,-0.174566,-0.338730,-0.043123,0.419049,0.102631,0.091622,0.581615,0.691620,0.087615,-2.070688,-1.665504,-0.968295,-1.875616
1.890000,-0.000476,-0.004115,-0.000414,0.012824,0.004250,0.001972,-0.012092,0.000476,-0.999927,0.000000,0.000000,0.000000,-0.041795,0.024930,0.151874,0.048237,0.083255,0.230639,0.296609,0.123415,-0.630463,-0.523750,-0.358174,-0.603444,-0.011467,0.005891,-0.000827,-0.010745,-0.127703,-0.042397,0.028180,-0.063199,-0.429664,-0.101117,0.057065,-0.176528,-0.336861,-0.042647,0.419424,0.101963,0.088035,0.577868,0.695536,0.089981,-2.068578,-1.663441,-0.971301,-1.878675
1.910000,-0.000485,-0.002993,-0.000553,0.007553,0.004085,0.002336,-0.012051,0.000360,-0.999927,0.000000,0.000000,0.000000,-0.041531,0.025064,0.151656,0.048104,0.083378,0.230574,0.296617,0.123184,-0.630335,-0.523696,-0.358558,-0.603784,-0.011924,0.006178,0.000415,-0.010955,-0.126069,-0.041683,0.025925,-0.064336,-0.425064,-0.099135,0.052595,-0.180818,-0.335201,-0.042954,0.419370,0.100467,0.083322,0.572979,0.700894,0.093717,-2.066681,-1.661222,-0.974296,-1.882166
1.930000,-0.000486,-0.001837,-0.000668,0.002148,0.003868,0.002779,-0.012014,0.000357,-0.999928,0.000000,0.000000,0.000000,-0.041275,0.025214,0.151432,0.047955,0.083466,0.230478,0.296652,0.122985,-0.630321,-0.523759,-0.358829,-0.604044,-0.012469,0.006614,0.002079,-0.011241,-0.123781,-0.040750,0.022490,-0.065803,-0.418242,-0.096679,0.045327,-0.186532,-0.333784,-0.044013,0.418918,0.098188,0.077614,0.567153,0.707513,0.098611,-2.065046,-1.658908,-0.977162,-1.885959
1.950000,-0.000474,-0.000681,-0.000745,-0.003176,0.003599,0.003304,-0.011980,0.000469,-0.999928,0.000000,0.000000,0.000000,-0.041032,0.025380,0.151208,0.047791,0.083519,0.230354,0.296716,0.122822,-0.630424,-0.523928,-0.358976,-0.604213,-0.013248,0.007039,0.004070,-0.011558,-0.121057,-0.039376,0.018413,-0.067364,-0.409799,-0.092955,0.036873,-0.193068,-0.332647,-0.045754,0.418101,0.095232,0.071138,0.560587,0.715155,0.104513,-2.063699,-1.656594,-0.979842,-1.889933
1.970000,-0.000442,0.000444,-0.000776,-0.008215,0.003262,0.003846,-0.011952,0.000691,-0.999928,0.000000,0.000000,0.000000,-0.040810,0.025558,0.150989,0.047613,0.083538,0.230207,0.296803,0.122701,-0.630632,-0.524195,-0.358999,-0.604289,-0.014211,0.007284,0.006412,-0.011698,-0.117945,-0.037642,0.013625,-0.068952,-0.399567,-0.088546,0.026894,-0.200266,-0.331818,-0.048108,0.416968,0.091676,0.064099,0.553524,0.723593,0.111208,-2.062679,-1.654328,-0.982254,-1.893972
1.990000,-0.000396,0.001506,-0.000756,-0.012752,0.002861,0.004409,-0.011930,0.001010,-0.999928,0.000000,0.000000,0.000000,-0.040614,0.025744,0.150782,0.047429,0.083522,0.230046,0.296910,0.122628,-0.630934,-0.524542,-0.358899,-0.604268,-0.015456,0.007304,0.009078,-0.011654,-0.114614,-0.035526,0.008340,-0.070469,-0.388204,-0.083207,0.015972,-0.207687,-0.331327,-0.050980,0.415557,0.087621,0.056738,0.546180,0.732565,0.118490,-2.061994,-1.652160,-0.984343,-1.897958
2.010000,-0.000323,0.002470,-0.000692,-0.016630,0.002501,0.004990,-0.011914,0.001416,-0.999928,0.000000,0.000000,0.000000,-0.040448,0.025931,0.150591,0.047242,0.083471,0.229875,0.297037,0.122602,-0.631316,-0.524956,-0.358672,-0.604151,-0.016958,0.007153,0.012207,-0.011364,-0.111046,-0.033180,0.002322,-0.072084,-0.375810,-0.077339,0.003152,-0.215755,-0.331173,-0.054275,0.413914,0.083187,0.049288,0.538804,0.741794,0.126125,-2.061669,-1.650133,-0.986051,-1.901769
2.030000,-0.000231,0.003312,-0.000586,-0.019925,0.002147,0.005543,-0.011904,0.001892,-0.999927,0.000000,0.000000,0.000000,-0.040318,0.026115,0.150422,0.047059,0.083390,0.229705,0.297174,0.122628,-0.631764,-0.525414,-0.358337,-0.603940,-0.018440,0.006967,0.015153,-0.011088,-0.107503,-0.030612,-0.003422,-0.073495,-0.363080,-0.071021,-0.008864,-0.223428,-0.331363,-0.057899,0.412037,0.078533,0.042028,0.531616,0.750921,0.133885,-2.061679,-1.648303,-0.987299,-1.905279
2.050000,-0.000134,0.004010,-0.000446,-0.022513,0.001749,0.006016,-0.011901,0.002420,-0.999926,0.000000,0.000000,0.000000,-0.040227,0.026285,0.150282,0.046887,0.083281,0.229542,0.297319,0.122703,-0.632259,-0.525896,-0.357907,-0.603640,-0.019812,0.006670,0.017909,-0.010650,-0.104074,-0.027772,-0.009043,-0.074804,-0.350254,-0.064136,-0.020568,-0.230850,-0.331877,-0.061747,0.409998,0.073805,0.035172,0.524807,0.759653,0.141531,-2.062013,-1.646704,-0.988089,-1.908392
2.070000,-0.000042,0.004536,-0.000286,-0.024142,0.001359,0.006458,-0.011904,0.002986,-0.999925,0.000000,0.000000,0.000000,-0.040174,0.026443,0.150168,0.046728,0.083147,0.229390,0.297465,0.122825,-0.632785,-0.526389,-0.357397,-0.603262,-0.021350,0.006118,0.020817,-0.010030,-0.100848,-0.025032,-0.014491,-0.076040,-0.338075,-0.057334,-0.032129,-0.237924,-0.332702,-0.065698,0.407861,0.069140,0.028918,0.518566,0.767746,0.148826,-2.062652,-1.645358,-0.988428,-1.911038
2.090000,0.000041,0.004884,-0.000115,-0.024946,0.000988,0.006818,-0.011913,0.003567,-0.999923,0.000000,0.000000,0.000000,-0.040161,0.026579,0.150088,0.046588,0.082997,0.229252,0.297611,0.122987,-0.633319,-0.526878,-0.356823,-0.602823,-0.022716,0.005556,0.023401,-0.009388,-0.097802,-0.022573,-0.019402,-0.077167,-0.326467,-0.051384,-0.042521,-0.244290,-0.333790,-0.069617,0.405681,0.064686,0.023424,0.513076,0.774974,0.155556,-2.063568,-1.644297,-0.988303,-1.913136
2.110000,0.000112,0.005050,0.000053,-0.024965,0.000663,0.007097,-0.011927,0.004145,-0.999920,0.000000,0.000000,0.000000,-0.040185,0.026693,0.150040,0.046471,0.082837,0.229132,0.297754,0.123178,-0.633845,-0.527347,-0.356204,-0.602341,-0.023924,0.004945,0.025680,-0.008702,-0.095078,-0.020291,-0.023873,-0.078318,-0.316056,-0.045645,-0.052283,-0.250303,-0.335099,-0.073378,0.403538,0.060592,0.018841,0.508456,0.781158,0.161547,-2.064710,-1.643570,-0.987730,-1.914633
2.130000,0.000162,0.005031,0.000210,-0.024131,0.000378,0.007296,-0.011947,0.004703,-0.999918,0.000000,0.000000,0.000000,-0.040246,0.026779,0.150024,0.046381,0.082672,0.229033,0.297888,0.123394,-0.634347,-0.527782,-0.355563,-0.601832,-0.024970,0.004300,0.027650,-0.008005,-0.092531,-0.018298,-0.027621,-0.079350,-0.306683,-0.040434,-0.060667,-0.255376,-0.336594,-0.076864,0.401485,0.056967,0.015287,0.504836,0.786142,0.166603,-2.066027,-1.643170,-0.986747,-1.915539
2.150000,0.000203,0.004841,0.000339,-0.022523,0.000191,0.007421,-0.011969,0.005223,-0.999915,0.000000,0.000000,0.000000,-0.040339,0.026838,0.150041,0.046317,0.082512,0.228950,0.298015,0.123620,-0.634806,-0.528179,-0.354919,-0.601321,-0.025725,0.003693,0.029282,-0.007295,-0.088831,-0.016803,-0.030373,-0.080497,-0.297081,-0.036412,-0.066954,-0.260281,-0.338207,-0.079977,0.399595,0.053925,0.012826,0.502265,0.789836,0.170627,-2.067484,-1.643109,-0.985401,-1.915847
2.170000,0.000238,0.004502,0.000436,-0.020344,0.000074,0.007444,-0.011994,0.005690,-0.999912,0.000000,0.000000,0.000000,-0.040461,0.026866,0.150090,0.046283,0.082358,0.228888,0.298126,0.123849,-0.635221,-0.528527,-0.354302,-0.600822,-0.026227,0.003091,0.030484,-0.006639,-0.085960,-0.015602,-0.032685,-0.081432,-0.290059,-0.033145,-0.072607,-0.264085,-0.339868,-0.082663,0.397911,0.051539,0.011468,0.500691,0.792213,0.173612,-2.069004,-1.643366,-0.983743,-1.915603
2.190000,0.000247,0.004024,0.000504,-0.017549,-0.000028,0.007379,-0.012020,0.006095,-0.999909,0.000000,0.000000,0.000000,-0.040606,0.026867,0.150167,0.046276,0.082215,0.228844,0.298220,0.124076,-0.635582,-0.528822,-0.353727,-0.600351,-0.026579,0.002436,0.031385,-0.005944,-0.083689,-0.014854,-0.034380,-0.082067,-0.284934,-0.031020,-0.077237,-0.266417,-0.341557,-0.084854,0.396467,0.049824,0.011174,0.500124,0.793288,0.175467,-2.070540,-1.643913,-0.981864,-1.914872
2.210000,0.000267,0.003451,0.000522,-0.014723,0.000128,0.007356,-0.012046,0.006429,-0.999907,0.000000,0.000000,0.000000,-0.040768,0.026844,0.150266,0.046296,0.082086,0.228816,0.298297,0.124285,-0.635885,-0.529064,-0.353213,-0.599932,-0.026178,0.002294,0.031629,-0.005782,-0.079065,-0.014649,-0.035114,-0.082738,-0.265795,-0.029788,-0.079749,-0.268310,-0.343201,-0.086499,0.395312,0.048807,0.011895,0.500527,0.793099,0.176204,-2.072068,-1.644744,-0.979831,-1.913683
2.230000,0.000364,0.002861,0.000430,-0.011859,0.000841,0.007161,-0.012060,0.006694,-0.999905,0.000000,0.000000,0.000000,-0.040940,0.026800,0.150388,0.046334,0.081965,0.228799,0.298346,0.124477,-0.636180,-0.529245,-0.352805,-0.599553,-0.027069,0.001956,0.031670,-0.005402,-0.087752,-0.014664,-0.036010,-0.083248,-0.295227,-0.029010,-0.083943,-0.268718,-0.344668,-0.087763,0.394414,0.048494,0.013624,0.501591,0.791935,0.176417,-2.073685,-1.645834,-0.977898,-1.912279
2.250000,0.000102,0.002052,0.000535,-0.007191,-0.000612,0.006851,-0.012086,0.006874,-0.999903,0.000000,0.000000,0.000000,-0.041121,0.026732,0.150526,0.046400,0.081872,0.228796,0.298383,0.124636,-0.636367,-0.529389,-0.352447,-0.599272,-0.027256,0.000669,0.031592,-0.004013,-0.085205,-0.015342,-0.034578,-0.083484,-0.286648,-0.032465,-0.079960,-0.270039,-0.346481,-0.088169,0.393736,0.048518,0.015506,0.503832,0.789546,0.174536,-2.074586,-1.646919,-0.975536,-1.910470
2.270000,-0.000041,0.001211,0.000638,-0.003327,-0.000855,0.006420,-0.012127,0.006959,-0.999902,0.000000,0.000000,0.000000,-0.041300,0.026633,0.150669,0.046499,0.081821,0.228803,0.298420,0.124757,-0.636415,-0.529493,-0.352123,-0.599088,-0.026385,0.000247,0.030213,-0.003587,-0.084749,-0.016190,-0.032110,-0.084052,-0.286125,-0.034047,-0.075620,-0.269682,-0.347534,-0.088202,0.393709,0.049483,0.018658,0.506606,0.786265,0.172140,-2.076133,-1.648458,-0.973562,-1.908153
2.290000,-0.000066,0.000394,0.000660,0.000489,-0.000321,0.006107,-0.012162,0.006961,-0.999902,0.000000,0.000000,0.000000,-0.041470,0.026517,0.150815,0.046614,0.081804,0.228818,0.298449,0.124837,-0.636378,-0.529529,-0.351885,-0.598975,-0.025980,-0.000056,0.029116,-0.003338,-0.085624,-0.017332,-0.029490,-0.084193,-0.290495,-0.035541,-0.071339,-0.267535,-0.348400,-0.087627,0.393997,0.051151,0.022646,0.510153,0.781951,0.168866,-2.077360,-1.650360,-0.971549,-1.905744
2.310000,-0.000077,-0.000407,0.000627,0.004264,0.000052,0.005789,-0.012190,0.006881,-0.999902,0.000000,0.000000,0.000000,-0.041633,0.026389,0.150966,0.046743,0.081814,0.228843,0.298459,0.124883,-0.636281,-0.529495,-0.351752,-0.598931,-0.025677,-0.000405,0.028011,-0.003055,-0.087707,-0.018495,-0.026969,-0.083455,-0.297504,-0.038031,-0.066759,-0.263585,-0.349112,-0.086463,0.394508,0.053405,0.027241,0.514332,0.776766,0.164724,-2.078181,-1.652363,-0.969563,-1.903293
2.330000,-0.000109,-0.001190,0.000573,0.007860,0.000198,0.005425,-0.012213,0.006724,-0.999903,0.000000,0.000000,0.000000,-0.041784,0.026251,0.151118,0.046882,0.081845,0.228879,0.298448,0.124893,-0.636123,-0.529407,-0.351720,-0.598968,-0.025246,-0.000716,0.026453,-0.002793,-0.090502,-0.019856,-0.023662,-0.082569,-0.305851,-0.041857,-0.059651,-0.259622,-0.349603,-0.084803,0.395283,0.056130,0.032285,0.518947,0.770925,0.159802,-2.078729,-1.654331,-0.967760,-1.900749
2.350000,-0.000149,-0.001937,0.000520,0.011098,0.000319,0.005034,-0.012234,0.006496,-0.999904,0.000000,0.000000,0.000000,-0.041921,0.026105,0.151266,0.047030,0.081897,0.228924,0.298420,0.124870,-0.635904,-0.529274,-0.351778,-0.599083,-0.024539,-0.000818,0.024555,-0.002754,-0.093671,-0.021339,-0.020075,-0.081370,-0.314968,-0.046162,-0.051821,-0.254611,-0.349847,-0.082754,0.396327,0.059205,0.037559,0.523814,0.764671,0.154326,-2.079048,-1.656242,-0.966192,-1.898180
2.370000,-0.000181,-0.002625,0.000475,0.013998,0.000496,0.004623,-0.012254,0.006204,-0.999906,0.000000,0.000000,0.000000,-0.042038,0.025957,0.151405,0.047182,0.081970,0.228977,0.298373,0.124815,-0.635626,-0.529099,-0.351926,-0.599272,-0.023727,-0.000871,0.022542,-0.002738,-0.097110,-0.022851,-0.016353,-0.080139,-0.324619,-0.050572,-0.043724,-0.249360,-0.349834,-0.080379,0.397608,0.062557,0.042933,0.528811,0.758173,0.148520,-2.079156,-1.658102,-0.964894,-1.895670
2.390000,-0.000202,-0.003233,0.000439,0.016396,0.000754,0.004282,-0.012269,0.005861,-0.999908,0.000000,0.000000,0.000000,-0.042131,0.025812,0.151528,0.047331,0.082060,0.229039,0.298314,0.124730,-0.635303,-0.528882,-0.352150,-0.599522,-0.022948,-0.000728,0.020471,-0.003006,-0.100847,-0.024403,-0.012456,-0.078598,-0.335194,-0.054800,-0.035027,-0.243152,-0.349588,-0.077736,0.399082,0.066078,0.048279,0.533821,0.751628,0.142550,-2.079054,-1.659872,-0.963886,-1.893303
2.410000,-0.000088,-0.003666,0.000320,0.017529,0.001708,0.004097,-0.012273,0.005488,-0.999910,0.000000,0.000000,0.000000,-0.042196,0.025685,0.151634,0.047463,0.082160,0.229103,0.298237,0.124625,-0.634970,-0.528626,-0.352464,-0.599808,-0.022284,0.000175,0.018355,-0.004063,-0.107541,-0.026000,-0.009223,-0.076508,-0.355596,-0.058738,-0.028081,-0.235299,-0.349114,-0.074904,0.400698,0.069665,0.053445,0.538728,0.745228,0.136575,-2.078746,-1.661491,-0.963183,-1.891147
2.430000,-0.000141,-0.004077,0.000294,0.019406,0.001494,0.003831,-0.012273,0.005082,-0.999912,0.000000,0.000000,0.000000,-0.042245,0.025563,0.151729,0.047590,0.082272,0.229176,0.298145,0.124502,-0.634599,-0.528342,-0.352837,-0.600136,-0.020877,0.000026,0.016977,-0.004080,-0.101335,-0.027421,-0.005615,-0.074482,-0.339858,-0.063622,-0.018926,-0.228902,-0.348615,-0.071886,0.402297,0.073124,0.058083,0.543427,0.739087,0.130623,-2.077986,-1.662769,-0.962751,-1.889343
2.450000,-0.000090,-0.004345,0.000230,0.020216,0.001991,0.003412,-0.012267,0.004661,-0.999914,0.000000,0.000000,0.000000,-0.042268,0.025448,0.151805,0.047709,0.082380,0.229254,0.298043,0.124366,-0.634245,-0.528037,-0.353267,-0.600486,-0.020215,0.000053,0.014737,-0.004181,-0.107572,-0.028256,-0.001476,-0.073192,-0.362556,-0.066261,-0.009431,-0.223460,-0.347557,-0.069158,0.404030,0.076585,0.062588,0.547273,0.733739,0.125957,-2.077617,-1.663807,-0.963030,-1.887891
2.470000,-0.000182,-0.004543,0.000261,0.020337,0.001715,0.003304,-0.012264,0.004236,-0.999916,0.000000,0.000000,0.000000,-0.042262,0.025352,0.151851,0.047809,0.082497,0.229331,0.297946,0.124218,-0.633864,-0.527730,-0.353698,-0.600862,-0.019265,0.000977,0.012710,-0.005138,-0.110616,-0.029596,0.001954,-0.071728,-0.369877,-0.070309,-0.000589,-0.218448,-0.346732,-0.066390,0.405674,0.079481,0.065979,0.550773,0.729087,0.121158,-2.076657,-1.664517,-0.963219,-1.886725
2.490000,-0.000227,-0.004590,0.000283,0.020002,0.001987,0.003160,-0.012260,0.003825,-0.999918,0.000000,0.000000,0.000000,-0.042227,0.025283,0.151868,0.047883,0.082626,0.229402,0.297859,0.124060,-0.633467,-0.527420,-0.354125,-0.601240,-0.018585,0.001423,0.011074,-0.005714,-0.113289,-0.030805,0.005446,-0.070632,-0.377029,-0.072659,0.007299,-0.213141,-0.345597,-0.063833,0.407331,0.082190,0.068893,0.553698,0.725216,0.117044,-2.075836,-1.665088,-0.963831,-1.885816
2.510000,-0.000226,-0.004512,0.000267,0.019218,0.002414,0.003106,-0.012248,0.003434,-0.999919,0.000000,0.000000,0.000000,-0.042170,0.025234,0.151864,0.047936,0.082760,0.229463,0.297781,0.123895,-0.633085,-0.527113,-0.354552,-0.601607,-0.018237,0.001811,0.010006,-0.006185,-0.115879,-0.031899,0.008106,-0.069541,-0.384199,-0.074778,0.013205,-0.208262,-0.344411,-0.061428,0.408847,0.084542,0.071199,0.556074,0.722061,0.113654,-2.074859,-1.665405,-0.964674,-1.885366
2.530000,-0.000207,-0.004323,0.000219,0.017868,0.002731,0.003093,-0.012231,0.003075,-0.999920,0.000000,0.000000,0.000000,-0.042095,0.025206,0.151841,0.047966,0.082894,0.229512,0.297712,0.123730,-0.632730,-0.526820,-0.354971,-0.601953,-0.017701,0.002370,0.009016,-0.006830,-0.117111,-0.032678,0.010199,-0.068461,-0.388854,-0.076616,0.018354,-0.204110,-0.343227,-0.059280,0.410150,0.086481,0.072809,0.557743,0.719748,0.111003,-2.073735,-1.665410,-0.965691,-1.885320
2.550000,-0.000191,-0.004036,0.000148,0.016143,0.002901,0.003103,-0.012209,0.002756,-0.999922,0.000000,0.000000,0.000000,-0.042003,0.025198,0.151798,0.047976,0.083018,0.229553,0.297650,0.123570,-0.632416,-0.526554,-0.355375,-0.602277,-0.017296,0.002817,0.008321,-0.007320,-0.118225,-0.033207,0.011605,-0.067611,-0.392715,-0.078184,0.022097,-0.201172,-0.342046,-0.057494,0.411240,0.087958,0.073674,0.558588,0.718378,0.109201,-2.072545,-1.665101,-0.966890,-1.885661
2.570000,-0.000190,-0.003662,0.000069,0.014030,0.002958,0.003148,-0.012186,0.002485,-0.999923,0.000000,0.000000,0.000000,-0.041895,0.025209,0.151737,0.047966,0.083131,0.229581,0.297596,0.123414,-0.632150,-0.526329,-0.355753,-0.602579,-0.016951,0.003274,0.007864,-0.007762,-0.118927,-0.033579,0.012301,-0.067370,-0.395241,-0.079386,0.024143,-0.200305,-0.340900,-0.056111,0.412097,0.088921,0.073744,0.558626,0.717984,0.108245,-2.071340,-1.664510,-0.968236,-1.886367
2.590000,-0.000199,-0.003214,-0.000006,0.011604,0.002966,0.003230,-0.012163,0.002267,-0.999923,0.000000,0.000000,0.000000,-0.041776,0.025239,0.151658,0.047938,0.083229,0.229594,0.297556,0.123270,-0.631937,-0.526150,-0.356089,-0.602844,-0.016674,0.003737,0.007603,-0.008233,-0.119151,-0.033805,0.012651,-0.067112,-0.396360,-0.080091,0.025390,-0.199354,-0.339821,-0.055162,0.412707,0.089360,0.073022,0.557892,0.718553,0.108139,-2.070164,-1.663686,-0.969691,-1.887414
2.610000,-0.000203,-0.002702,-0.000078,0.008951,0.002965,0.003366,-0.012140,0.002110,-0.999924,0.000000,0.000000,0.000000,-0.041646,0.025287,0.151563,0.047891,0.083313,0.229592,0.297528,0.123136,-0.631779,-0.526026,-0.356380,-0.603078,-0.016567,0.004120,0.007744,-0.008608,-0.118895,-0.033813,0.012136,-0.067332,-0.395973,-0.080071,0.024461,-0.200111,-0.338801,-0.054638,0.413096,0.089312,0.071568,0.556445,0.720025,0.108880,-2.069072,-1.662709,-0.971216,-1.888755
2.630000,-0.000201,-0.002145,-0.000139,0.006239,0.002933,0.003546,-0.012118,0.002013,-0.999925,0.000000,0.000000,0.000000,-0.041513,0.025350,0.151458,0.047828,0.083381,0.229575,0.297516,0.123018,-0.631680,-0.525956,-0.356617,-0.603268,-0.016653,0.004410,0.008237,-0.008861,-0.118165,-0.033577,0.011160,-0.067503,-0.393968,-0.079399,0.022549,-0.200932,-0.337888,-0.054533,0.413232,0.088786,0.069474,0.554368,0.722307,0.110376,-2.068064,-1.661598,-0.972760,-1.890363
2.650000,-0.000197,-0.001557,-0.000191,0.003388,0.002859,0.003740,-0.012097,0.001977,-0.999925,0.000000,0.000000,0.000000,-0.041381,0.025425,0.151346,0.047754,0.083430,0.229543,0.297519,0.122915,-0.631642,-0.525940,-0.356793,-0.603416,-0.016764,0.004720,0.008768,-0.009119,-0.117256,-0.033160,0.010027,-0.068219,-0.391272,-0.078360,0.020460,-0.203616,-0.337080,-0.054823,0.413152,0.087835,0.066835,0.551743,0.725309,0.112572,-2.067184,-1.660411,-0.974282,-1.892166
2.670000,-0.000187,-0.000954,-0.000225,0.000512,0.002745,0.004021,-0.012078,0.002001,-0.999925,0.000000,0.000000,0.000000,-0.041252,0.025508,0.151231,0.047671,0.083462,0.229498,0.297534,0.122832,-0.631662,-0.525977,-0.356911,-0.603515,-0.017096,0.005053,0.009729,-0.009426,-0.115993,-0.032503,0.007865,-0.068773,-0.387407,-0.076510,0.015910,-0.206190,-0.336431,-0.055508,0.412861,0.086467,0.063693,0.548648,0.728955,0.115360,-2.066423,-1.659166,-0.975715,-1.894110
2.690000,-0.000169,-0.000359,-0.000240,-0.002258,0.002609,0.004282,-0.012061,0.002084,-0.999925,0.000000,0.000000,0.000000,-0.041133,0.025600,0.151117,0.047578,0.083476,0.229440,0.297564,0.122771,-0.631736,-0.526068,-0.356959,-0.603562,-0.017414,0.005299,0.010737,-0.009614,-0.114430,-0.031696,0.005586,-0.069473,-0.382310,-0.074468,0.011219,-0.209346,-0.335925,-0.056538,0.412368,0.084768,0.060217,0.545231,0.733075,0.118633,-2.065826,-1.657905,-0.977065,-1.896136
2.710000,-0.000146,0.000214,-0.000242,-0.004721,0.002441,0.004554,-0.012046,0.002221,-0.999925,0.000000,0.000000,0.000000,-0.041024,0.025698,0.151006,0.047481,0.083472,0.229372,0.297608,0.122731,-0.631865,-0.526202,-0.356941,-0.603562,-0.018006,0.005312,0.012183,-0.009516,-0.112785,-0.030730,0.002637,-0.070466,-0.376802,-0.072066,0.004861,-0.213643,-0.335597,-0.057877,0.411705,0.082767,0.056489,0.541550,0.737578,0.122321,-2.065390,-1.656672,-0.978263,-1.898184
2.730000,-0.000120,0.000743,-0.000222,-0.006983,0.002253,0.004817,-0.012034,0.002408,-0.999925,0.000000,0.000000,0.000000,-0.040929,0.025799,0.150901,0.047379,0.083450,0.229299,0.297662,0.122718,-0.632039,-0.526373,-0.356857,-0.603507,-0.018577,0.005311,0.013503,-0.009468,-0.110958,-0.029530,-0.000031,-0.071247,-0.370558,-0.068986,-0.000799,-0.217344,-0.335457,-0.059480,0.410872,0.080517,0.052636,0.537761,0.742302,0.126262,-2.065122,-1.655477,-0.979263,-1.900187
2.750000,-0.000091,0.001218,-0.000189,-0.008869,0.002056,0.005094,-0.012026,0.002635,-0.999924,0.000000,0.000000,0.000000,-0.040852,0.025898,0.150807,0.047280,0.083413,0.229221,0.297723,0.122728,-0.632250,-0.526576,-0.356716,-0.603406,-0.019283,0.005200,0.015096,-0.009274,-0.108873,-0.028327,-0.003116,-0.072212,-0.363412,-0.065891,-0.007590,-0.221741,-0.335487,-0.061290,0.409931,0.078107,0.048774,0.533972,0.747111,0.130361,-2.065051,-1.654378,-0.980056,-1.902086
2.770000,-0.000057,0.001628,-0.000142,-0.010459,0.001868,0.005371,-0.012021,0.002896,-0.999924,0.000000,0.000000,0.000000,-0.040792,0.025995,0.150723,0.047182,0.083361,0.229142,0.297793,0.122762,-0.632493,-0.526803,-0.356520,-0.603260,-0.020031,0.005056,0.016627,-0.009135,-0.106978,-0.027088,-0.006031,-0.073133,-0.356830,-0.062633,-0.013874,-0.226055,-0.335688,-0.063253,0.408883,0.075615,0.045044,0.530298,0.751829,0.134490,-2.065151,-1.653388,-0.980622,-1.903819
2.790000,-0.000023,0.001960,-0.000083,-0.011655,0.001655,0.005590,-0.012019,0.003183,-0.999923,0.000000,0.000000,0.000000,-0.040751,0.026085,0.150654,0.047091,0.083297,0.229063,0.297867,0.122818,-0.632760,-0.527046,-0.356276,-0.603074,-0.020713,0.004875,0.017978,-0.008847,-0.105196,-0.025771,-0.008661,-0.073965,-0.350378,-0.059397,-0.019418,-0.230086,-0.336054,-0.065306,0.407761,0.073107,0.041528,0.526840,0.756322,0.138505,-2.065402,-1.652522,-0.980948,-1.905351
2.810000,0.000008,0.002205,-0.000016,-0.012365,0.001438,0.005787,-0.012020,0.003483,-0.999922,0.000000,0.000000,0.000000,-0.040731,0.026165,0.150601,0.047008,0.083222,0.228989,0.297943,0.122894,-0.633038,-0.527296,-0.355994,-0.602854,-0.021455,0.004551,0.019440,-0.008485,-0.103421,-0.024521,-0.011474,-0.074684,-0.343910,-0.056290,-0.025626,-0.233707,-0.336566,-0.067389,0.406611,0.070660,0.038322,0.523673,0.760477,0.142304,-2.065799,-1.651812,-0.981034,-1.906637
2.830000,0.000036,0.002360,0.000054,-0.012680,0.001250,0.005962,-0.012025,0.003790,-0.999920,0.000000,0.000000,0.000000,-0.040730,0.026235,0.150563,0.046937,0.083141,0.228922,0.298017,0.122985,-0.633320,-0.527545,-0.355686,-0.602614,-0.022133,0.004242,0.020790,-0.008133,-0.101839,-0.023326,-0.014098,-0.075568,-0.338149,-0.053171,-0.031500,-0.237687,-0.337196,-0.069433,0.405455,0.068359,0.035548,0.520903,0.764154,0.145784,-2.066338,-1.651276,-0.980891,-1.907642
2.850000,0.000058,0.002419,0.000124,-0.012525,0.001070,0.006091,-0.012033,0.004092,-0.999919,0.000000,0.000000,0.000000,-0.040749,0.026292,0.150543,0.046877,0.083055,0.228861,0.298091,0.123091,-0.633596,-0.527787,-0.355357,-0.602354,-0.022771,0.003874,0.021975,-0.007714,-0.100301,-0.022293,-0.016307,-0.076269,-0.332536,-0.050519,-0.036484,-0.240909,-0.337940,-0.071379,0.404321,0.066257,0.033251,0.518603,0.767269,0.148828,-2.066975,-1.650905,-0.980527,-1.908365
2.870000,0.000080,0.002388,0.000187,-0.012019,0.000946,0.006189,-0.012043,0.004381,-0.999918,0.000000,0.000000,0.000000,-0.040787,0.026334,0.150542,0.046833,0.082972,0.228808,0.298162,0.123203,-0.633855,-0.528017,-0.355020,-0.602090,-0.023171,0.003626,0.022971,-0.007386,-0.098103,-0.021416,-0.018250,-0.077094,-0.326541,-0.048216,-0.040959,-0.244324,-0.338755,-0.073175,0.403255,0.064418,0.031487,0.516795,0.769768,0.151403,-2.067704,-1.650727,-0.979958,-1.908779
2.890000,0.000105,0.002276,0.000241,-0.011188,0.000864,0.006228,-0.012055,0.004650,-0.999917,0.000000,0.000000,0.000000,-0.040840,0.026361,0.150555,0.046804,0.082888,0.228764,0.298227,0.123320,-0.634098,-0.528225,-0.354687,-0.601825,-0.023461,0.003325,0.023681,-0.007071,-0.096304,-0.020619,-0.019588,-0.077631,-0.321965,-0.046124,-0.044046,-0.246658,-0.339618,-0.074790,0.402274,0.062893,0.030289,0.515490,0.771605,0.153471,-2.068484,-1.650727,-0.979210,-1.908905
2.910000,0.000118,0.002089,0.000282,-0.009978,0.000768,0.006230,-0.012067,0.004891,-0.999915,0.000000,0.000000,0.000000,-0.040906,0.026372,0.150583,0.046790,0.082806,0.228730,0.298284,0.123439,-0.634318,-0.528409,-0.354371,-0.601570,-0.023767,0.002967,0.024333,-0.006652,-0.094862,-0.020001,-0.020820,-0.078098,-0.318541,-0.044515,-0.047138,-0.248632,-0.340504,-0.076172,0.401413,0.061696,0.029635,0.514711,0.772773,0.154965,-2.069290,-1.650895,-0.978319,-1.908763
2.930000,0.000118,0.001831,0.000317,-0.008498,0.000687,0.006199,-0.012082,0.005098,-0.999914,0.000000,0.000000,0.000000,-0.040983,0.026370,0.150626,0.046790,0.082730,0.228707,0.298330,0.123555,-0.634508,-0.528568,-0.354079,-0.601332,-0.023929,0.002641,0.024746,-0.006356,-0.093662,-0.019645,-0.021593,-0.078410,-0.315765,-0.043529,-0.049191,-0.249821,-0.341381,-0.077289,0.400685,0.060854,0.029528,0.514478,0.773250,0.155847,-2.070107,-1.651213,-0.977323,-1.908348
2.950000,0.000117,0.001515,0.000342,-0.006808,0.000656,0.006126,-0.012097,0.005266,-0.999913,0.000000,0.000000,0.000000,-0.041069,0.026352,0.150681,0.046806,0.082662,0.228692,0.298368,0.123661,-0.634664,-0.528698,-0.353816,-0.601124,-0.023993,0.002378,0.024948,-0.006036,-0.092877,-0.019500,-0.022104,-0.078824,-0.314312,-0.043136,-0.050835,-0.251106,-0.342220,-0.078114,0.400121,0.060387,0.029955,0.514763,0.773057,0.156145,-2.070920,-1.651691,-0.976260,-1.907690
2.970000,0.000107,0.001152,0.000363,-0.004995,0.000644,0.006028,-0.012113,0.005394,-0.999912,0.000000,0.000000,0.000000,-0.041161,0.026322,0.150744,0.046835,0.082605,0.228688,0.298396,0.123757,-0.634783,-0.528797,-0.353589,-0.600945,-0.023934,0.002149,0.024897,-0.005819,-0.092411,-0.019530,-0.021992,-0.078965,-0.313683,-0.043081,-0.051059,-0.251359,-0.343012,-0.078639,0.399716,0.060287,0.030878,0.515539,0.772224,0.155848,-2.071681,-1.652306,-0.975142,-1.906822
2.990000,0.000110,0.000765,0.000366,-0.003085,0.000757,0.005947,-0.012127,0.005480,-0.999911,0.000000,0.000000,0.000000,-0.041252,0.026282,0.150814,0.046873,0.082557,0.228691,0.298413,0.123841,-0.634865,-0.528862,-0.353408,-0.600798,-0.023772,0.001978,0.024778,-0.005642,-0.091298,-0.019763,-0.021703,-0.078763,-0.308616,-0.043422,-0.050941,-0.250375,-0.343717,-0.078861,0.399490,0.060548,0.032255,0.516765,0.770804,0.154994,-2.072391,-1.653042,-0.974024,-1.905786
3.010000,0.000136,0.000379,0.000329,-0.001239,0.001043,0.005785,-0.012136,0.005523,-0.999911,0.000000,0.000000,0.000000,-0.041345,0.026233,0.150892,0.046922,0.082520,0.228702,0.298418,0.123910,-0.634924,-0.528893,-0.353281,-0.600686,-0.023503,0.001751,0.024323,-0.005413,-0.090951,-0.020089,-0.020897,-0.078835,-0.306316,-0.044055,-0.049738,-0.249886,-0.344280,-0.078822,0.399422,0.061166,0.034078,0.518327,0.768900,0.153820,-2.073085,-1.653876,-0.973006,-1.904662
