umas2022/MultiAxisController_MG43/tests/play_model/obs_go_2025-09-11_17-12-00.csv
time,base_lin_vel_0,base_lin_vel_1,base_lin_vel_2,base_ang_vel_0,base_ang_vel_1,base_ang_vel_2,projected_gravity_0,projected_gravity_1,projected_gravity_2,velocity_commands_0,velocity_commands_1,velocity_commands_2,joint_pos_0,joint_pos_1,joint_pos_2,joint_pos_3,joint_pos_4,joint_pos_5,joint_pos_6,joint_pos_7,joint_pos_8,joint_pos_9,joint_pos_10,joint_pos_11,joint_vel_0,joint_vel_1,joint_vel_2,joint_vel_3,joint_vel_4,joint_vel_5,joint_vel_6,joint_vel_7,joint_vel_8,joint_vel_9,joint_vel_10,joint_vel_11,actions_0,actions_1,actions_2,actions_3,actions_4,actions_5,actions_6,actions_7,actions_8,actions_9,actions_10,actions_11
0.030000,0.000000,0.000000,0.000000,0.000000,0.000000,0.000000,0.000000,0.000000,-1.000000,0.500000,0.000000,0.000000,0.000000,0.000000,0.000000,0.000000,0.000000,0.000000,0.000000,0.000000,0.000000,0.000000,0.000000,0.000000,0.000000,0.000000,0.000000,0.000000,0.000000,0.000000,0.000000,0.000000,0.000000,0.000000,0.000000,0.000000,0.000000,0.000000,0.000000,0.000000,0.000000,0.000000,0.000000,0.000000,0.000000,0.000000,0.000000,0.000000
0.050000,-0.001501,0.010144,-0.188456,-0.391885,0.802749,-0.264262,0.012804,0.009547,-0.999872,0.500000,0.000000,0.000000,0.058518,-0.043127,0.020994,-0.051753,0.002761,0.003271,0.073070,0.016209,-0.377592,-0.151560,-0.252975,-0.214096,4.658385,-3.098270,2.471628,-2.554147,3.580741,2.086390,7.570243,3.719291,-7.237748,-1.178432,-3.509003,-1.890040,0.443758,-0.400721,0.245528,-0.352045,0.224447,0.230767,0.689922,0.410064,-1.699694,-0.679379,-1.168926,-0.978069
0.070000,0.007039,0.012725,-0.373248,-0.017054,0.209868,-0.230672,0.021446,0.010298,-0.999717,0.500000,0.000000,0.000000,0.095812,-0.129893,0.023910,-0.084946,0.022124,-0.025543,0.149195,0.057318,-0.433892,-0.277112,-0.329297,-0.235202,0.322994,-3.728014,-1.216604,-1.321814,-0.699234,-1.897915,1.589685,1.090768,-0.638446,-0.753510,-0.962985,-0.187694,0.113747,-0.449684,-0.179198,-0.268709,-0.202685,-0.432791,0.173197,-0.056528,-1.695709,-1.098205,-1.262747,-0.906703
0.090000,0.034616,0.014588,-0.572326,-0.255946,-0.267684,0.182991,0.018656,0.018155,-0.999661,0.500000,0.000000,0.000000,0.077091,-0.201231,-0.047247,-0.121440,-0.001990,-0.103810,0.065817,0.084074,-0.548326,-0.386498,-0.379370,-0.285444,-1.432752,-3.111571,-3.877702,-1.337307,-0.337410,-3.494269,-6.070171,1.569809,-1.185638,-0.507529,0.365411,-0.619871,0.216825,-0.753127,-0.298495,-0.421106,0.060977,-0.528116,-0.126419,0.267881,-2.223085,-1.566374,-1.477578,-1.147076
0.110000,0.034610,0.009667,-0.794659,-0.145020,-0.188602,0.124492,0.013811,0.030997,-0.999424,0.500000,0.000000,0.000000,0.081942,-0.247729,-0.160758,-0.150113,0.032568,-0.157052,-0.122421,0.088065,-0.548164,-0.349684,-0.322398,-0.272592,0.139728,-2.497210,-5.168286,-0.385957,2.538619,-2.556591,-10.104851,-0.870143,-0.279858,-4.638446,2.042935,0.161831,0.405848,-0.947326,-0.585042,-0.511333,0.272120,-0.529119,-0.660160,0.185434,-2.214208,-1.320507,-1.275920,-1.064771
0.130000,0.099984,0.004915,-0.660878,-0.224765,0.668109,0.014596,0.025201,0.036856,-0.999003,0.500000,0.000000,0.000000,0.123193,-0.254015,-0.196454,-0.200310,0.090522,-0.234813,-0.229374,0.034469,-0.472731,-0.482574,-0.506618,-0.278696,1.595108,-0.672694,-1.131215,-2.672819,1.801011,-4.859420,-5.051637,-3.044407,0.774437,-8.305577,-10.951607,-6.425279,0.642243,-1.132563,-0.736804,-0.889441,0.211716,-0.331074,-0.754033,0.062797,-1.880102,-0.817825,-1.065883,-1.006290
0.150000,0.246986,0.089389,-0.486492,-0.764183,0.585878,0.437362,0.035170,0.042138,-0.998493,0.500000,0.000000,0.000000,0.118335,-0.259517,-0.204002,-0.216092,0.141678,-0.279798,-0.308735,0.004849,-0.420840,-0.575919,-0.641239,-0.358821,-0.767765,0.362089,-0.592984,-1.362170,2.354492,-2.855352,-3.950464,-1.361675,0.358378,-5.762255,-6.140222,-4.481332,0.455288,-0.809137,-0.700568,-0.531772,0.621702,-0.538422,-1.686377,0.134775,-1.683336,-1.933662,-1.419535,-0.901782
0.170000,0.363051,0.099757,-0.487287,-0.402310,0.419599,0.302185,0.044823,0.039357,-0.998219,0.500000,0.000000,0.000000,0.093537,-0.261686,-0.195246,-0.193073,0.189868,-0.253894,-0.402796,-0.021642,-0.357465,-0.623167,-0.759652,-0.424564,-0.268590,0.834052,-0.179946,0.940248,1.331073,2.720022,-4.410553,-0.679117,-1.976640,-3.505460,-5.391537,-2.386683,0.541085,-0.951578,-0.744898,-0.556246,0.754399,-0.464872,-2.066786,-0.333435,-1.415553,-2.168336,-2.228364,-1.495479
0.190000,0.326440,0.045713,-0.406774,0.444058,0.257941,0.176101,0.053393,0.029639,-0.998134,0.500000,0.000000,0.000000,0.095045,-0.266179,-0.185425,-0.181673,0.191531,-0.174494,-0.487800,-0.143944,-0.426723,-0.625701,-0.863907,-0.553675,0.462510,-0.047231,0.358313,-0.091805,-0.307218,3.987012,-4.869602,-7.081271,-3.443868,-1.962137,-5.838760,-9.363531,0.492769,-0.920181,-0.577105,-0.737429,0.573652,-0.401571,-1.805403,-0.963198,-1.143356,-1.898099,-2.882240,-2.096876
0.210000,0.356711,0.019484,-0.333357,-0.359849,0.435998,-0.183605,0.060848,0.026389,-0.997798,0.500000,0.000000,0.000000,0.097290,-0.252564,-0.089725,-0.222224,0.127655,-0.062857,-0.374433,-0.316386,-0.532058,-0.586973,-0.862743,-0.695836,0.842387,1.422725,4.450192,-2.578232,-3.205145,5.591363,9.704476,-7.237792,-5.065913,1.073266,0.621718,-2.432217,0.334152,-0.683391,-0.362784,-0.889159,-0.241108,-0.202958,-0.922967,-1.331681,-1.329353,-1.651632,-3.497832,-2.719085
0.230000,0.380001,-0.031115,-0.393332,0.221301,-0.414497,-0.223419,0.058123,0.029355,-0.997878,0.500000,0.000000,0.000000,0.114204,-0.219494,-0.069781,-0.223434,0.051230,0.016188,-0.179349,-0.402453,-0.624978,-0.580701,-0.853889,-0.793215,0.423775,1.115605,-0.830966,1.950156,-3.932149,2.937085,8.244624,-1.425880,-3.911322,-1.114184,-0.409137,-3.402758,0.219648,-0.587499,-0.415739,-0.762603,-0.874468,-0.398329,-0.812919,-1.462207,-1.540705,-1.921969,-3.402718,-3.062465
0.250000,0.374910,-0.048335,-0.372989,0.632453,-0.235838,-0.057901,0.051091,0.029840,-0.998248,0.500000,0.000000,0.000000,0.126416,-0.177265,-0.058367,-0.223495,-0.024738,-0.009855,-0.008784,-0.384462,-0.707274,-0.651856,-0.737878,-0.846615,-0.177992,1.769250,1.245401,-0.262820,-3.552478,-2.190056,6.520468,-0.064685,-3.575203,-3.540046,2.397305,-5.056672,0.312222,-0.460973,-0.136637,-0.797663,-1.423058,-0.858155,-0.296958,-1.419405,-1.672517,-2.080165,-2.831576,-2.766920
0.270000,0.464799,-0.006456,-0.257142,0.042565,0.150464,-0.142794,0.050874,0.029891,-0.998258,0.500000,0.000000,0.000000,0.136290,-0.122618,-0.017178,-0.230620,-0.101583,-0.101263,0.089866,-0.349547,-0.788707,-0.736367,-0.687412,-0.872665,0.408346,2.655989,2.391048,-0.408472,-3.768233,-4.825444,3.204235,1.352995,-3.477667,-3.385057,1.525726,-2.909509,0.429303,-0.385882,0.031556,-0.787042,-1.489758,-1.309446,0.005308,-1.141736,-1.824458,-2.347598,-2.364606,-2.481019
0.290000,0.472182,0.011608,-0.131453,0.165862,-0.020323,-0.107041,0.051777,0.032643,-0.998125,0.500000,0.000000,0.000000,0.145647,-0.082192,0.011010,-0.215939,-0.180825,-0.235705,0.107449,-0.251768,-0.854833,-0.826019,-0.686810,-0.841479,0.066026,1.448033,1.271740,1.377588,-4.260541,-6.611626,-0.392168,5.645764,-3.666186,-2.966079,-0.814618,1.540432,0.484614,-0.384470,0.013778,-0.778398,-1.040846,-1.634423,0.058346,-0.907597,-2.140193,-2.728704,-2.204617,-2.593520
0.310000,0.386204,-0.018117,-0.021554,0.500575,-0.447912,-0.080972,0.045532,0.028205,-0.998565,0.500000,0.000000,0.000000,0.166966,-0.080662,0.013912,-0.195947,-0.172926,-0.363672,0.041328,-0.142263,-0.838663,-0.906998,-0.734909,-0.794802,1.148244,-0.293800,0.331829,0.955459,2.518898,-4.708097,-3.390125,4.325773,2.217924,-1.013805,-2.190603,1.302232,0.491564,-0.499375,-0.218519,-0.759968,-0.420570,-1.771343,-0.422169,-0.768973,-2.615018,-3.074185,-2.195872,-2.530220
0.330000,0.420607,0.004335,0.029267,0.121708,-0.419975,-0.094218,0.036364,0.018954,-0.999159,0.500000,0.000000,0.000000,0.159256,-0.093665,0.010572,-0.183710,-0.059193,-0.382109,-0.048382,-0.067382,-0.754431,-0.929542,-0.787813,-0.764023,-1.173644,-0.319822,-0.541055,0.148240,6.332397,1.049846,-4.510786,3.313324,4.030035,1.074531,-2.248914,1.195185,0.365974,-0.565278,-0.387391,-0.717282,-0.067010,-1.632007,-1.169577,-0.603829,-2.843645,-3.298148,-2.364739,-2.361388
0.350000,0.443366,0.009772,0.023978,-0.389296,-0.406668,0.005910,0.028551,0.015921,-0.999466,0.500000,0.000000,0.000000,0.121631,-0.097299,0.013110,-0.181518,0.074579,-0.310282,-0.125486,-0.032278,-0.664510,-0.905013,-0.821840,-0.752107,-1.940211,0.272632,-0.383430,-0.390760,5.632906,3.032148,-3.258360,0.753935,3.675901,-0.090366,-0.895272,0.261877,0.359149,-0.507649,-0.235996,-0.723548,0.164109,-1.241163,-1.622324,-0.874055,-2.526769,-3.052010,-2.375209,-2.526597
0.370000,0.499934,-0.002692,0.009665,-0.326942,-0.271075,0.076804,0.022611,0.014684,-0.999637,0.500000,0.000000,0.000000,0.086896,-0.090951,0.016574,-0.179024,0.176410,-0.214576,-0.205846,-0.079173,-0.590005,-0.860725,-0.855875,-0.792368,-1.099380,0.712790,-0.327338,-0.001641,3.782103,4.566451,-3.580584,-2.941415,2.815312,0.994902,-1.225472,-1.853920,0.360880,-0.512617,-0.080954,-0.697936,0.492596,-0.847106,-1.683797,-1.038130,-2.184338,-2.809258,-2.553039,-2.683998
0.390000,0.503101,-0.010316,0.017409,0.028017,-0.014038,-0.013362,0.020724,0.008248,-0.999751,0.500000,0.000000,0.000000,0.072556,-0.091939,0.022865,-0.163782,0.222129,-0.122620,-0.281037,-0.184549,-0.550832,-0.804569,-0.890545,-0.857343,0.159594,-0.064675,-0.072896,0.711463,1.068319,3.342896,-4.019662,-4.981030,1.015846,1.551507,-2.221257,-1.985985,0.290826,-0.488874,0.042999,-0.669066,0.581960,-0.638482,-1.347185,-1.252048,-1.863818,-2.548203,-2.809322,-2.971496
0.410000,0.485741,-0.023836,0.060376,0.129228,0.101079,0.063269,0.021912,0.003413,-0.999754,0.500000,0.000000,0.000000,0.067179,-0.091246,0.052854,-0.163695,0.163593,-0.039679,-0.245338,-0.283914,-0.595854,-0.741576,-0.862571,-0.906867,-0.124539,0.070825,1.606368,-0.308291,-3.417257,3.267660,4.327229,-3.809078,-2.741687,1.931237,2.630883,-0.767966,-0.000092,-0.303033,0.107242,-0.758931,0.046807,-0.367702,-0.603543,-1.356980,-1.745120,-2.308666,-3.200709,-3.281709
0.430000,0.469060,-0.039046,0.017131,0.043013,-0.022081,0.015767,0.022482,0.011224,-0.999684,0.500000,0.000000,0.000000,0.076001,-0.077013,0.039321,-0.176093,0.080494,0.017463,-0.094215,-0.297110,-0.658291,-0.695710,-0.788783,-0.908764,0.014397,0.296115,-1.526716,0.067665,-3.902558,1.993791,7.724816,0.750529,-2.674692,1.807918,1.502418,0.751553,-0.046430,-0.322905,-0.009907,-0.807479,-0.678074,-0.525551,-0.247173,-1.281583,-1.884481,-2.373383,-3.124444,-3.317627
0.450000,0.466333,-0.031681,-0.011616,0.527911,0.115227,-0.048273,0.024180,0.011536,-0.999641,0.500000,0.000000,0.000000,0.081430,-0.073905,0.028052,-0.176399,0.011515,-0.043248,0.071062,-0.230521,-0.708808,-0.734814,-0.670886,-0.871788,-0.361257,-0.078501,-0.220662,0.375162,-3.154057,-4.358628,6.534921,2.803992,-1.894853,-2.248734,4.056327,0.902929,0.141197,-0.273164,0.120169,-0.756161,-1.166623,-0.991906,0.048237,-1.007391,-1.976944,-2.451845,-2.564599,-2.906464
0.470000,0.534947,-0.011393,-0.003862,0.134055,0.097678,-0.056908,0.026414,0.011488,-0.999585,0.500000,0.000000,0.000000,0.085851,-0.059879,0.029570,-0.175491,-0.064762,-0.167274,0.142283,-0.157796,-0.763454,-0.805539,-0.623917,-0.829812,0.021437,0.899277,0.571559,0.097122,-3.858301,-5.978328,1.413430,3.572077,-2.521897,-2.253851,0.797323,1.144580,0.238854,-0.279453,0.153924,-0.776359,-1.019479,-1.358772,0.166667,-0.737595,-2.175582,-2.667481,-2.101582,-2.586214
0.490000,0.509712,-0.002774,0.043793,0.003465,0.047826,-0.065556,0.027928,0.013298,-0.999521,0.500000,0.000000,0.000000,0.101777,-0.067228,0.026252,-0.176321,-0.102922,-0.295746,0.081880,-0.080299,-0.782503,-0.875486,-0.671478,-0.777726,1.072006,-0.669010,-0.113924,0.093031,-0.743153,-5.148075,-3.694935,3.685900,-0.477039,-0.883479,-2.866096,2.416230,0.349181,-0.476451,-0.060326,-0.708641,-0.329265,-1.521033,-0.264491,-0.606520,-2.537752,-2.995823,-2.002115,-2.462374
0.510000,0.502796,0.014271,0.053394,0.058310,-0.033988,-0.046244,0.027935,0.009823,-0.999561,0.500000,0.000000,0.000000,0.109076,-0.086893,0.026460,-0.169520,-0.030080,-0.339830,-0.005967,-0.003738,-0.725899,-0.898278,-0.731325,-0.720681,-0.150760,-0.596122,-0.043471,0.208052,5.174419,-0.370776,-4.179962,3.939063,3.547113,1.108033,-2.532008,2.996243,0.259970,-0.489514,-0.195619,-0.621801,0.140077,-1.406126,-1.061225,-0.481408,-2.778286,-3.276590,-2.162763,-2.341159
0.530000,0.487197,0.027423,0.004710,-0.427559,-0.269898,0.038884,0.024511,0.007969,-0.999668,0.500000,0.000000,0.000000,0.089917,-0.088652,0.031020,-0.164474,0.085728,-0.272336,-0.083196,0.007038,-0.644624,-0.868513,-0.772760,-0.715722,-1.100396,0.325656,-0.305100,-0.126819,5.008264,3.454784,-3.532081,-0.968016,3.365078,0.832755,-1.139142,-0.503339,0.264987,-0.436896,-0.102901,-0.628705,0.253121,-1.128885,-1.532456,-0.712743,-2.505278,-3.077566,-2.213859,-2.445971
0.550000,0.524609,0.023489,-0.023852,-0.396841,-0.210309,0.064063,0.020217,0.008216,-0.999762,0.500000,0.000000,0.000000,0.072796,-0.086592,0.034919,-0.155312,0.183684,-0.184588,-0.166078,-0.078172,-0.571107,-0.829760,-0.815603,-0.779700,-0.340708,0.394394,-0.227839,0.414035,3.823985,3.647287,-3.846879,-4.384317,2.870360,0.130477,-1.020513,-2.548971,0.304984,-0.513231,-0.001765,-0.611851,0.565889,-0.763657,-1.542531,-0.998331,-2.124311,-2.751759,-2.393628,-2.616035
0.570000,0.525609,0.013547,0.005513,-0.142057,0.026577,0.004540,0.019333,0.005347,-0.999799,0.500000,0.000000,0.000000,0.066905,-0.090242,0.040223,-0.142282,0.225227,-0.107360,-0.243876,-0.194468,-0.538033,-0.786901,-0.855817,-0.849736,0.311145,0.035808,-0.091842,0.457130,0.801834,3.527206,-4.279778,-4.998498,0.593450,1.475494,-2.768341,-1.749191,0.216869,-0.482627,0.116488,-0.633848,0.571393,-0.557279,-1.057339,-1.214463,-1.764273,-2.466227,-2.703645,-2.939165
0.590000,0.508777,-0.001334,0.043959,0.077276,0.115130,0.054960,0.020888,0.004498,-0.999772,0.500000,0.000000,0.000000,0.063430,-0.089114,0.061731,-0.153803,0.160747,-0.023406,-0.200762,-0.289004,-0.591928,-0.724841,-0.826026,-0.900100,-0.173739,-0.010410,1.166128,-0.726333,-3.629330,3.451265,4.991405,-3.402722,-3.093062,2.141045,2.954988,-0.992823,-0.083545,-0.326781,0.093492,-0.746889,0.008678,-0.306759,-0.365253,-1.318029,-1.719918,-2.269128,-3.133181,-3.279289
0.610000,0.488926,-0.019104,-0.005945,0.076318,-0.033468,-0.014506,0.021417,0.013923,-0.999674,0.500000,0.000000,0.000000,0.074891,-0.076225,0.036278,-0.169439,0.080118,0.023989,-0.049961,-0.290856,-0.655288,-0.690190,-0.752783,-0.898802,0.068996,0.078001,-1.889246,0.102729,-3.336370,1.301210,7.391078,1.240572,-2.150343,1.103125,1.485259,0.888378,-0.018572,-0.334827,-0.012802,-0.783149,-0.713702,-0.545695,-0.127107,-1.255347,-1.851448,-2.339596,-2.977180,-3.282478
0.630000,0.499821,-0.010058,-0.039033,0.438006,0.120902,-0.037894,0.023002,0.014307,-0.999633,0.500000,0.000000,0.000000,0.078110,-0.073317,0.023423,-0.167774,0.008895,-0.044355,0.103273,-0.221368,-0.711317,-0.738413,-0.644152,-0.862668,-0.380235,0.085537,-0.116671,0.371157,-3.480816,-4.507601,5.931521,3.028132,-2.388788,-2.480893,3.668403,0.962046,0.164464,-0.269904,0.137570,-0.740010,-1.148802,-0.989835,0.166459,-0.957612,-1.972221,-2.447721,-2.444749,-2.872248
0.650000,0.547987,0.002169,-0.024823,0.103214,0.049441,-0.063144,0.024705,0.015019,-0.999582,0.500000,0.000000,0.000000,0.081397,-0.059371,0.027677,-0.166270,-0.071413,-0.167860,0.161837,-0.146797,-0.771216,-0.813092,-0.605936,-0.822223,0.012195,0.851585,0.702196,0.080857,-4.148823,-5.901998,0.894290,3.588950,-2.943615,-2.456440,0.441505,1.705252,0.266745,-0.296523,0.147040,-0.743405,-0.974333,-1.370739,0.239075,-0.722124,-2.161876,-2.670102,-2.012565,-2.580795
0.670000,0.517386,0.006296,0.031301,0.007357,0.033377,-0.054714,0.025489,0.017193,-0.999527,0.500000,0.000000,0.000000,0.100440,-0.065971,0.025847,-0.167315,-0.100956,-0.291497,0.094080,-0.068034,-0.784665,-0.883589,-0.659356,-0.771846,1.187010,-0.657926,-0.036695,0.118577,-0.019593,-4.872899,-3.767573,3.741487,-0.007349,-0.909622,-2.953879,2.397660,0.348946,-0.475529,-0.066064,-0.672433,-0.290432,-1.517549,-0.257416,-0.589260,-2.536602,-3.004905,-1.950604,-2.413840
0.690000,0.508449,0.021881,0.041534,0.081682,-0.010928,-0.046050,0.025738,0.013197,-0.999582,0.500000,0.000000,0.000000,0.108552,-0.082639,0.028310,-0.159385,-0.020605,-0.325241,0.007118,0.008852,-0.723869,-0.900972,-0.720791,-0.714884,-0.143884,-0.472864,0.063320,0.274310,5.314472,0.089195,-4.034845,3.996562,3.589452,1.230532,-2.874475,3.136691,0.255906,-0.476254,-0.190492,-0.594797,0.137230,-1.377030,-1.050544,-0.475667,-2.753484,-3.258566,-2.118483,-2.316290
0.710000,0.488953,0.031589,0.000504,-0.396079,-0.213465,0.041803,0.023199,0.010849,-0.999672,0.500000,0.000000,0.000000,0.091580,-0.085421,0.034340,-0.154916,0.095347,-0.256013,-0.068365,0.015173,-0.642351,-0.868985,-0.764286,-0.712708,-0.926235,0.275591,-0.235063,-0.173147,4.932182,3.443999,-3.564985,-1.247627,3.322057,0.927894,-1.409903,-0.629782,0.263724,-0.434943,-0.094748,-0.607334,0.267502,-1.088589,-1.519778,-0.706033,-2.458858,-3.038002,-2.159505,-2.418462
0.730000,0.526600,0.026830,-0.017573,-0.320502,-0.172149,0.071201,0.019783,0.010082,-0.999753,0.500000,0.000000,0.000000,0.076493,-0.084948,0.039733,-0.145195,0.190364,-0.169027,-0.148499,-0.072303,-0.570131,-0.826599,-0.807126,-0.777199,-0.275994,0.224122,-0.135767,0.483176,3.658993,3.446834,-3.829895,-4.405003,2.779637,1.018943,-1.494971,-2.488427,0.308790,-0.513293,0.006419,-0.580794,0.582552,-0.714244,-1.506748,-0.981456,-2.092092,-2.721300,-2.344221,-2.592879
0.750000,0.526036,0.014919,0.015364,-0.131727,0.035022,0.003894,0.019201,0.006808,-0.999792,0.500000,0.000000,0.000000,0.072169,-0.089291,0.045820,-0.132133,0.227648,-0.092020,-0.225839,-0.190922,-0.539084,-0.782873,-0.847642,-0.847633,0.355277,0.018503,-0.064022,0.453093,0.602283,3.558838,-4.279115,-5.142486,0.491041,1.600144,-2.827793,-1.754479,0.227083,-0.470712,0.127644,-0.595288,0.574806,-0.503011,-1.002874,-1.215022,-1.743152,-2.427399,-2.668024,-2.923604
0.770000,0.510736,-0.000412,0.053813,0.115203,0.129050,0.054386,0.020990,0.005688,-0.999763,0.500000,0.000000,0.000000,0.069006,-0.088936,0.064706,-0.145252,0.161261,-0.008255,-0.183118,-0.286451,-0.593645,-0.718630,-0.818025,-0.898103,-0.224946,-0.043420,0.993863,-0.789554,-3.613508,3.520619,4.965032,-3.385120,-3.045069,2.404593,2.958122,-0.952741,-0.083998,-0.336433,0.093960,-0.728582,-0.011799,-0.263574,-0.294519,-1.305629,-1.717328,-2.243603,-3.111660,-3.262932
0.790000,0.488971,-0.017169,0.002582,0.107282,-0.024838,-0.015888,0.021685,0.014750,-0.999656,0.500000,0.000000,0.000000,0.080147,-0.076909,0.036206,-0.161853,0.082033,0.034232,-0.034583,-0.285954,-0.655080,-0.685689,-0.744363,-0.894978,0.024668,-0.002492,-1.975359,0.074414,-3.360723,0.955723,7.239573,1.372663,-2.382604,0.901161,1.515691,1.042648,0.004666,-0.345759,-0.009651,-0.764148,-0.730515,-0.517370,-0.075174,-1.235613,-1.844678,-2.324556,-2.942507,-3.262824
0.810000,0.499232,-0.008455,-0.030062,0.416478,0.108495,-0.035814,0.023124,0.014967,-0.999621,0.500000,0.000000,0.000000,0.082839,-0.074444,0.023219,-0.159801,0.011108,-0.040345,0.115225,-0.216130,-0.709899,-0.737993,-0.636414,-0.857653,-0.373840,0.125220,-0.086262,0.362164,-3.471991,-4.723683,5.773667,3.029043,-2.324846,-2.618946,3.694206,0.999105,0.191176,-0.276512,0.146139,-0.721406,-1.151169,-0.973126,0.211936,-0.939752,-1.961742,-2.444016,-2.405483,-2.847829
0.830000,0.547430,0.002527,-0.017438,0.093260,0.035199,-0.051495,0.024535,0.015885,-0.999573,0.500000,0.000000,0.000000,0.085832,-0.060918,0.027310,-0.158513,-0.068360,-0.166533,0.169106,-0.140887,-0.768145,-0.814489,-0.599960,-0.815929,-0.004361,0.815743,0.688333,0.070959,-4.124930,-5.987315,0.663262,3.639230,-2.862459,-2.524659,0.338085,1.751794,0.288827,-0.310644,0.144443,-0.720097,-0.952266,-1.358623,0.267984,-0.707960,-2.159298,-2.675457,-1.994046,-2.564716
0.850000,0.518142,0.005670,0.034751,-0.001496,0.034628,-0.046431,0.025250,0.018203,-0.999515,0.500000,0.000000,0.000000,0.104196,-0.068078,0.025614,-0.160012,-0.096320,-0.290070,0.099881,-0.061750,-0.780343,-0.884805,-0.653900,-0.764487,1.142419,-0.678183,-0.041108,0.103430,0.099829,-4.824383,-3.739214,3.778280,0.086341,-0.906468,-2.838826,2.517944,0.355102,-0.485919,-0.080567,-0.647714,-0.262749,-1.503093,-0.249682,-0.581354,-2.536126,-3.012807,-1.942942,-2.391293
0.870000,0.507698,0.019856,0.040335,0.098548,-0.022282,-0.045726,0.025437,0.013955,-0.999579,0.500000,0.000000,0.000000,0.109944,-0.084213,0.027965,-0.151869,-0.016925,-0.320759,0.012311,0.014422,-0.720628,-0.900384,-0.716151,-0.707415,-0.275899,-0.439899,0.060877,0.376547,5.202300,0.243116,-4.079425,3.788801,3.491191,1.247480,-3.000520,3.155850,0.258715,-0.480638,-0.195859,-0.573120,0.142121,-1.357386,-1.037777,-0.474162,-2.741912,-3.256520,-2.104435,-2.297085
0.890000,0.488855,0.028627,0.001075,-0.419735,-0.209783,0.042069,0.022870,0.012129,-0.999665,0.500000,0.000000,0.000000,0.092652,-0.086200,0.033042,-0.147841,0.098340,-0.250731,-0.063084,0.016265,-0.639742,-0.867771,-0.759870,-0.708614,-0.929523,0.318603,-0.278607,-0.198256,4.934537,3.446159,-3.560840,-1.407910,3.314194,0.943660,-1.424479,-0.692668,0.266383,-0.441577,-0.098694,-0.585757,0.284153,-1.060780,-1.507329,-0.700643,-2.445651,-3.027207,-2.144856,-2.397956
0.910000,0.527027,0.024166,-0.016879,-0.307617,-0.182920,0.065652,0.019398,0.011106,-0.999750,0.500000,0.000000,0.000000,0.076611,-0.085647,0.038331,-0.138444,0.192562,-0.162932,-0.143421,-0.073454,-0.567958,-0.825690,-0.803128,-0.774761,-0.312372,0.282428,-0.144793,0.462346,3.602270,3.674115,-3.843375,-4.466235,2.752698,0.275757,-1.517318,-2.499275,0.307404,-0.523737,0.004748,-0.563016,0.588376,-0.689903,-1.480453,-0.982258,-2.077614,-2.712110,-2.335439,-2.578714
0.930000,0.526749,0.012788,0.016802,-0.095142,0.056213,0.004805,0.019026,0.007671,-0.999790,0.500000,0.000000,0.000000,0.071124,-0.089758,0.044248,-0.128344,0.229541,-0.084918,-0.220948,-0.190772,-0.537682,-0.778865,-0.844625,-0.845058,0.260630,-0.005175,-0.026517,0.312228,0.609530,3.573864,-4.230163,-5.034982,0.446462,1.709894,-2.782763,-1.678366,0.216113,-0.487657,0.118726,-0.596899,0.583659,-0.484012,-0.971941,-1.208340,-1.736816,-2.421386,-2.658777,-2.906572
0.950000,0.511813,-0.002243,0.051568,0.117262,0.135650,0.044681,0.021085,0.006419,-0.999757,0.500000,0.000000,0.000000,0.067806,-0.090254,0.062532,-0.145155,0.162908,-0.003451,-0.178782,-0.285331,-0.593170,-0.716429,-0.815892,-0.896481,-0.198826,-0.029906,0.958314,-0.937376,-3.614594,3.593145,4.904937,-3.349958,-3.040868,2.640213,2.897055,-0.982841,-0.085152,-0.342918,0.087451,-0.726952,-0.015945,-0.247158,-0.281690,-1.301955,-1.715798,-2.235511,-3.102329,-3.257807
0.970000,0.488424,-0.018415,-0.001344,0.123321,-0.023987,-0.021374,0.021803,0.014991,-0.999650,0.500000,0.000000,0.000000,0.078874,-0.078333,0.035154,-0.162178,0.083888,0.037621,-0.032029,-0.284995,-0.654728,-0.683906,-0.742445,-0.894384,0.020308,0.011201,-1.911251,0.083113,-3.374313,0.858062,7.145641,1.356728,-2.391528,0.815760,1.532315,1.006502,0.006039,-0.345446,-0.011265,-0.759806,-0.736278,-0.509788,-0.067607,-1.235194,-1.842175,-2.318069,-2.934319,-3.260816
0.990000,0.498512,-0.009536,-0.031647,0.407661,0.103424,-0.035717,0.023122,0.014930,-0.999621,0.500000,0.000000,0.000000,0.081451,-0.074645,0.023681,-0.160351,0.012910,-0.038345,0.116110,-0.216398,-0.709671,-0.737197,-0.636062,-0.858395,-0.356842,0.218573,-0.029453,0.393263,-3.468626,-4.782609,5.725529,3.213848,-2.310913,-2.656918,3.686228,0.856028,0.187350,-0.273714,0.149312,-0.720778,-1.155227,-0.969424,0.218686,-0.935501,-1.957168,-2.439462,-2.400627,-2.842509
1.010000,0.548057,0.002415,-0.015598,0.078109,0.045487,-0.051308,0.024634,0.016340,-0.999563,0.500000,0.000000,0.000000,0.085183,-0.059197,0.028378,-0.159585,-0.066602,-0.164414,0.169561,-0.140999,-0.768217,-0.813010,-0.599397,-0.816626,0.013946,0.869147,0.726586,0.066246,-4.117043,-5.993325,0.657650,3.595571,-2.864228,-2.497615,0.356288,1.355926,0.285899,-0.307089,0.149485,-0.724844,-0.953179,-1.357878,0.270220,-0.711345,-2.153854,-2.664821,-1.988522,-2.558988
1.030000,0.516781,0.004709,0.038732,0.021247,0.036860,-0.050041,0.025484,0.018695,-0.999500,0.500000,0.000000,0.000000,0.103732,-0.066199,0.026620,-0.160876,-0.095443,-0.287761,0.100948,-0.061760,-0.780763,-0.882807,-0.652676,-0.764071,1.130373,-0.683954,-0.027941,0.137401,0.019689,-4.770726,-3.716072,3.785089,0.052603,-0.878554,-2.794614,2.577347,0.355850,-0.482425,-0.074222,-0.654882,-0.267362,-1.497311,-0.232369,-0.577633,-2.527123,-3.002974,-1.938837,-2.399886
1.050000,0.505559,0.018964,0.043274,0.099968,-0.020915,-0.043099,0.025717,0.014400,-0.999566,0.500000,0.000000,0.000000,0.110049,-0.083124,0.028830,-0.152719,-0.016967,-0.319980,0.013292,0.014450,-0.721025,-0.898994,-0.714920,-0.706546,-0.238944,-0.487937,0.055399,0.360007,5.175836,0.130018,-4.096283,3.780765,3.506292,1.204717,-3.088835,3.136533,0.259550,-0.478662,-0.192167,-0.577016,0.144078,-1.358334,-1.031907,-0.469380,-2.742746,-3.252365,-2.102034,-2.296547
1.070000,0.486847,0.028510,0.002578,-0.408085,-0.219404,0.039912,0.023020,0.012393,-0.999658,0.500000,0.000000,0.000000,0.092730,-0.085283,0.034022,-0.148384,0.097656,-0.250495,-0.061936,0.017132,-0.640047,-0.866682,-0.758182,-0.707123,-0.942520,0.301578,-0.271365,-0.177919,4.907751,3.429871,-3.544363,-1.359993,3.321248,0.910494,-1.390631,-0.672445,0.267468,-0.439435,-0.096033,-0.587287,0.283599,-1.061400,-1.507284,-0.691667,-2.450778,-3.028914,-2.143079,-2.395523
1.090000,0.525287,0.023916,-0.016623,-0.308268,-0.185405,0.064583,0.019460,0.011372,-0.999746,0.500000,0.000000,0.000000,0.076773,-0.084832,0.039201,-0.139195,0.191926,-0.163149,-0.142034,-0.072303,-0.568004,-0.824769,-0.801159,-0.773308,-0.313127,0.278306,-0.150758,0.446463,3.616740,3.650433,-3.814302,-4.463958,2.771060,0.316853,-1.471449,-2.509769,0.308974,-0.521592,0.006862,-0.565943,0.588976,-0.690468,-1.483054,-0.977652,-2.082249,-2.710494,-2.332738,-2.574619
1.110000,0.525874,0.012759,0.015956,-0.115570,0.045288,0.003130,0.018983,0.008006,-0.999788,0.500000,0.000000,0.000000,0.071414,-0.088884,0.045046,-0.129260,0.229398,-0.085297,-0.219189,-0.189806,-0.537197,-0.778378,-0.842170,-0.844076,0.285469,0.014230,-0.057713,0.291247,0.631386,3.573188,-4.265858,-5.037706,0.478933,1.683855,-2.857989,-1.699092,0.218469,-0.486124,0.120813,-0.598183,0.585743,-0.485383,-0.976891,-1.204956,-1.739208,-2.420195,-2.654329,-2.903503
1.130000,0.510885,-0.002664,0.051021,0.127598,0.132062,0.047601,0.020909,0.006612,-0.999759,0.500000,0.000000,0.000000,0.067812,-0.089511,0.063325,-0.145688,0.163044,-0.003895,-0.178470,-0.284715,-0.592245,-0.716299,-0.814386,-0.895964,-0.214135,-0.036097,0.961391,-0.917440,-3.604789,3.584233,4.824527,-3.369118,-3.022758,2.620738,2.851890,-0.998232,-0.084809,-0.340560,0.090482,-0.728589,-0.008621,-0.247642,-0.281877,-1.300973,-1.715214,-2.233363,-3.095901,-3.254486
1.150000,0.487891,-0.018732,-0.001890,0.125476,-0.022759,-0.020580,0.021633,0.015081,-0.999652,0.500000,0.000000,0.000000,0.078701,-0.077726,0.035632,-0.162769,0.083678,0.038040,-0.032320,-0.284977,-0.654277,-0.683203,-0.742026,-0.894321,0.022122,0.004729,-1.929060,0.077087,-3.360971,0.912204,7.151750,1.330268,-2.410343,0.855224,1.498100,0.991404,0.004452,-0.343823,-0.010488,-0.762262,-0.731017,-0.505446,-0.063454,-1.233886,-1.843235,-2.315659,-2.933923,-3.261486
1.170000,0.497845,-0.009337,-0.033186,0.413587,0.115036,-0.037256,0.023166,0.015219,-0.999616,0.500000,0.000000,0.000000,0.081572,-0.074273,0.023544,-0.160744,0.012826,-0.037589,0.116319,-0.215634,-0.709614,-0.736234,-0.635445,-0.857603,-0.359252,0.181040,-0.033105,0.351194,-3.467383,-4.796278,5.748345,2.990630,-2.358614,-2.670700,3.669019,0.971206,0.186863,-0.272645,0.148604,-0.721294,-1.154517,-0.967852,0.219525,-0.935087,-1.957486,-2.436916,-2.399784,-2.842758
1.190000,0.547568,0.002631,-0.018890,0.091493,0.042129,-0.066791,0.024724,0.016218,-0.999563,0.500000,0.000000,0.000000,0.085127,-0.059652,0.028479,-0.159368,-0.067323,-0.164369,0.169935,-0.140705,-0.768750,-0.812915,-0.599262,-0.815964,0.025583,0.849198,0.712750,0.091455,-4.142149,-6.020843,0.665793,3.616592,-2.905969,-2.545976,0.332964,1.761917,0.284286,-0.305104,0.149505,-0.722314,-0.956077,-1.355759,0.271757,-0.704219,-2.154487,-2.667553,-1.988868,-2.559526
1.210000,0.518302,0.005653,0.035653,0.010310,0.036568,-0.044114,0.025457,0.018557,-0.999504,0.500000,0.000000,0.000000,0.103607,-0.066088,0.026826,-0.160714,-0.096009,-0.288830,0.100775,-0.061639,-0.781427,-0.883724,-0.653227,-0.764496,1.125488,-0.635160,-0.023117,0.112231,0.048277,-4.825021,-3.741866,3.775127,0.046572,-0.904662,-2.845511,2.507484,0.353100,-0.479985,-0.072761,-0.653090,-0.265566,-1.503698,-0.245833,-0.575971,-2.533489,-3.005425,-1.936667,-2.390147
1.230000,0.507317,0.019861,0.041818,0.093327,-0.021281,-0.045090,0.025666,0.014264,-0.999569,0.500000,0.000000,0.000000,0.109892,-0.082653,0.029274,-0.152634,-0.016935,-0.320870,0.013344,0.014815,-0.721538,-0.899905,-0.715323,-0.707166,-0.222991,-0.471972,0.053791,0.360555,5.201400,0.165705,-4.071891,3.887930,3.518300,1.225617,-2.979471,3.409452,0.259889,-0.479198,-0.192434,-0.577899,0.143472,-1.359336,-1.036178,-0.468744,-2.742980,-3.253937,-2.101296,-2.296218
1.250000,0.487965,0.028700,0.001527,-0.406818,-0.216571,0.041051,0.022996,0.012191,-0.999661,0.500000,0.000000,0.000000,0.092687,-0.084940,0.034595,-0.148577,0.097715,-0.251201,-0.062025,0.017575,-0.640653,-0.867629,-0.758893,-0.707899,-0.932360,0.300606,-0.266589,-0.195824,4.896091,3.431494,-3.557736,-1.385215,3.304646,0.902783,-1.413901,-0.700228,0.266367,-0.436214,-0.092397,-0.588413,0.280672,-1.062809,-1.505334,-0.697063,-2.450184,-3.027559,-2.142486,-2.396189
1.270000,0.526231,0.024291,-0.016565,-0.309600,-0.183532,0.064721,0.019478,0.011174,-0.999748,0.500000,0.000000,0.000000,0.076861,-0.084477,0.039828,-0.139375,0.191827,-0.163648,-0.142185,-0.071653,-0.568790,-0.825625,-0.802003,-0.773953,-0.305694,0.281016,-0.149484,0.452911,3.612305,3.661201,-3.827793,-4.443225,2.764926,0.300706,-1.493987,-2.501123,0.308261,-0.520170,0.008028,-0.566136,0.588505,-0.692407,-1.482183,-0.976324,-2.083492,-2.712429,-2.330838,-2.575212
1.290000,0.526336,0.013217,0.016652,-0.113014,0.046395,0.005710,0.019009,0.007853,-0.999788,0.500000,0.000000,0.000000,0.071601,-0.088498,0.045659,-0.129192,0.229705,-0.085683,-0.219475,-0.188944,-0.537567,-0.779104,-0.842990,-0.844457,0.279445,0.013169,-0.046875,0.309476,0.661278,3.576455,-4.244634,-5.036683,0.506787,1.690511,-2.793816,-1.700781,0.218743,-0.485273,0.121378,-0.597861,0.587741,-0.486414,-0.980970,-1.204994,-1.739937,-2.422537,-2.651466,-2.903331
1.310000,0.511180,-0.002233,0.052329,0.123444,0.134976,0.047470,0.020985,0.006449,-0.999759,0.500000,0.000000,0.000000,0.068008,-0.089145,0.063961,-0.145210,0.163540,-0.004217,-0.178891,-0.283897,-0.592520,-0.716788,-0.815256,-0.896005,-0.210496,-0.032650,0.954766,-0.904307,-3.614578,3.587381,4.804261,-3.372458,-3.055313,2.634681,2.805707,-0.989340,-0.083587,-0.340152,0.092324,-0.727231,-0.004968,-0.249660,-0.285570,-1.300374,-1.713506,-2.233897,-3.095974,-3.253265
1.330000,0.487600,-0.018305,-0.000268,0.123308,-0.025242,-0.020365,0.021692,0.014978,-0.999653,0.500000,0.000000,0.000000,0.078878,-0.077466,0.036137,-0.162548,0.084213,0.038328,-0.032787,-0.284949,-0.654296,-0.683166,-0.742546,-0.894659,0.021578,-0.002557,-1.939744,0.064223,-3.358795,0.937856,7.153659,1.286365,-2.399193,0.875270,1.513531,0.978729,0.002925,-0.343885,-0.009910,-0.762694,-0.728423,-0.502696,-0.064268,-1.234624,-1.843337,-2.315993,-2.935711,-3.262827
1.350000,0.497415,-0.009065,-0.031827,0.414540,0.112578,-0.036866,0.023183,0.015119,-0.999617,0.500000,0.000000,0.000000,0.081692,-0.074257,0.023748,-0.160463,0.013428,-0.036839,0.116025,-0.215513,-0.709389,-0.735902,-0.635956,-0.857769,-0.363729,0.169203,-0.050230,0.354443,-3.463346,-4.774367,5.760052,2.996548,-2.345575,-2.660166,3.682145,0.978882,0.186649,-0.273109,0.148741,-0.721107,-1.153025,-0.964411,0.219056,-0.935090,-1.957501,-2.435731,-2.402354,-2.844827
1.370000,0.547562,0.002948,-0.018078,0.090549,0.041602,-0.066571,0.024716,0.016140,-0.999564,0.500000,0.000000,0.000000,0.085227,-0.059680,0.028482,-0.159065,-0.066711,-0.163374,0.170084,-0.140509,-0.768421,-0.812461,-0.599338,-0.815951,0.023480,0.849438,0.708291,0.093208,-4.138396,-6.015800,0.687929,3.620929,-2.895871,-2.547960,0.356509,1.769019,0.283942,-0.304494,0.150255,-0.722087,-0.957743,-1.353223,0.273127,-0.703761,-2.153154,-2.665979,-1.990827,-2.559465
1.390000,0.518307,0.005644,0.036617,0.015130,0.040981,-0.042628,0.025499,0.018425,-0.999505,0.500000,0.000000,0.000000,0.103489,-0.065891,0.026888,-0.160319,-0.095937,-0.287636,0.101124,-0.061420,-0.781464,-0.883049,-0.653133,-0.764264,1.117539,-0.615807,-0.013610,0.117810,0.009277,-4.796482,-3.734148,3.775142,0.017717,-1.161319,-2.828198,2.518797,0.353110,-0.479178,-0.071877,-0.652318,-0.268078,-1.502283,-0.242119,-0.575552,-2.531363,-3.003179,-1.937272,-2.389888
1.410000,0.506862,0.020109,0.042707,0.084113,-0.017471,-0.043366,0.025819,0.014187,-0.999566,0.500000,0.000000,0.000000,0.109833,-0.082648,0.029339,-0.152307,-0.017883,-0.320893,0.013795,0.014999,-0.722346,-0.899553,-0.715236,-0.706641,-0.203982,-0.491372,0.046209,0.345759,5.150527,0.067006,-4.067694,3.891923,3.479703,1.179068,-2.981987,3.404701,0.259202,-0.480313,-0.192435,-0.578133,0.139282,-1.362611,-1.035544,-0.466875,-2.743332,-3.254803,-2.101179,-2.292658
1.430000,0.487219,0.029039,0.002035,-0.404548,-0.219242,0.040673,0.023142,0.012129,-0.999659,0.500000,0.000000,0.000000,0.092688,-0.084916,0.034677,-0.148124,0.096258,-0.251615,-0.061515,0.018429,-0.641819,-0.867308,-0.758676,-0.706737,-0.934009,0.296262,-0.262987,-0.186461,4.889587,3.432990,-3.552068,-1.352373,3.301405,0.911616,-1.402043,-0.680994,0.266275,-0.437142,-0.093283,-0.586360,0.278176,-1.064374,-1.504299,-0.690813,-2.456094,-3.031890,-2.143495,-2.393587
1.450000,0.525122,0.024580,-0.016431,-0.311058,-0.185483,0.063864,0.019579,0.011164,-0.999746,0.500000,0.000000,0.000000,0.076950,-0.084475,0.039840,-0.139050,0.190809,-0.164174,-0.141511,-0.070664,-0.569590,-0.825585,-0.801608,-0.772829,-0.308637,0.279496,-0.151568,0.444984,3.643431,3.655344,-3.813458,-4.445375,2.790479,0.282075,-1.470725,-2.509698,0.308135,-0.521005,0.006885,-0.565338,0.586527,-0.693675,-1.484396,-0.973426,-2.088146,-2.712996,-2.330139,-2.571013
1.470000,0.526163,0.013747,0.016289,-0.117248,0.044234,-0.002199,0.019065,0.007893,-0.999787,0.500000,0.000000,0.000000,0.071700,-0.088523,0.045707,-0.129006,0.229512,-0.086273,-0.218777,-0.187969,-0.537657,-0.779260,-0.843175,-0.843541,0.288108,0.002488,0.022619,0.308284,0.695351,3.576995,-4.142470,-5.038147,0.539834,1.675501,-3.197926,-1.707714,0.219894,-0.487467,0.120617,-0.597283,0.588457,-0.487362,-0.986523,-1.202395,-1.743229,-2.423541,-2.649109,-2.898744
1.490000,0.511803,-0.001873,0.050980,0.119433,0.124829,0.044966,0.020809,0.006614,-0.999762,0.500000,0.000000,0.000000,0.067800,-0.089166,0.064198,-0.144883,0.163914,-0.004402,-0.178263,-0.284454,-0.591981,-0.717270,-0.814304,-0.896241,-0.204729,-0.037386,0.945486,-0.885245,-3.628779,3.595396,4.708739,-3.469498,-3.050702,2.601824,2.799274,-1.042626,-0.083177,-0.338973,0.093879,-0.723018,0.003890,-0.244499,-0.295725,-1.310000,-1.715138,-2.238151,-3.089500,-3.250551
1.510000,0.489252,-0.018096,-0.001048,0.123272,-0.029357,-0.016819,0.021404,0.015082,-0.999657,0.500000,0.000000,0.000000,0.078485,-0.077680,0.035927,-0.162259,0.084085,0.039659,-0.034084,-0.287343,-0.654185,-0.682898,-0.742921,-0.896211,0.016072,-0.006740,-1.959652,0.061077,-3.372392,1.027747,7.083022,1.224043,-2.417560,0.928885,1.484563,0.940353,-0.000762,-0.345246,-0.011527,-0.762527,-0.720369,-0.496716,-0.066201,-1.240639,-1.844279,-2.313844,-2.938236,-3.269108
1.530000,0.497931,-0.008689,-0.032402,0.408879,0.115579,-0.039889,0.022889,0.015315,-0.999621,0.500000,0.000000,0.000000,0.081425,-0.074691,0.023059,-0.160176,0.013128,-0.034412,0.114847,-0.217666,-0.709444,-0.735183,-0.636589,-0.859258,-0.352967,0.154120,-0.076576,0.361664,-3.468408,-4.750988,5.805257,3.040845,-2.357413,-2.664831,3.700875,1.024271,0.186665,-0.274844,0.145942,-0.718803,-1.152132,-0.958630,0.219757,-0.941478,-1.956582,-2.432908,-2.407986,-2.854264
1.550000,0.548284,0.003070,-0.018757,0.095669,0.044836,-0.066833,0.024475,0.016292,-0.999568,0.500000,0.000000,0.000000,0.084980,-0.059892,0.027979,-0.158636,-0.067145,-0.160604,0.170569,-0.142693,-0.768680,-0.811602,-0.598770,-0.817542,0.017494,0.868004,0.730564,0.099925,-4.138733,-6.025327,0.773276,3.617597,-2.895897,-2.567207,0.424564,1.769395,0.282765,-0.301977,0.151650,-0.720829,-0.967663,-1.349814,0.277142,-0.710146,-2.148715,-2.661550,-1.992703,-2.564845
1.570000,0.518297,0.005653,0.036124,0.019866,0.042718,-0.046704,0.025304,0.018534,-0.999508,0.500000,0.000000,0.000000,0.103234,-0.065657,0.026333,-0.159758,-0.097687,-0.286246,0.102245,-0.063644,-0.782617,-0.882624,-0.652273,-0.765997,1.130133,-0.600545,-0.013899,0.127613,-0.089652,-4.911688,-3.728413,3.767276,-0.054385,-0.755797,-2.817859,2.501520,0.354349,-0.476153,-0.068749,-0.650724,-0.281568,-1.501696,-0.227468,-0.581499,-2.525992,-2.997407,-1.935214,-2.395791
1.590000,0.507258,0.019530,0.044037,0.084184,-0.009974,-0.047394,0.025621,0.014303,-0.999569,0.500000,0.000000,0.000000,0.110402,-0.082372,0.028549,-0.151758,-0.019458,-0.321455,0.014653,0.012883,-0.723040,-0.900258,-0.714735,-0.708722,-0.152819,-0.472328,0.032942,0.278875,5.210523,0.027078,-4.079711,3.997324,3.533219,1.206651,-3.052371,3.198135,0.261184,-0.479538,-0.195499,-0.575674,0.140575,-1.362805,-1.021465,-0.467400,-2.744902,-3.252836,-2.100790,-2.297368
1.610000,0.486427,0.029308,0.003308,-0.392282,-0.222419,0.035512,0.022961,0.011965,-0.999665,0.500000,0.000000,0.000000,0.092765,-0.085027,0.034118,-0.148018,0.094703,-0.252380,-0.060543,0.018807,-0.642511,-0.867934,-0.758097,-0.707018,-0.970550,0.275761,-0.255083,-0.222943,4.865395,3.452631,-3.545011,-1.251857,3.281571,0.951728,-1.396717,-0.891151,0.263984,-0.440127,-0.098103,-0.588554,0.268226,-1.074948,-1.500200,-0.689922,-2.458223,-3.036138,-2.138881,-2.395299
1.630000,0.524001,0.025049,-0.015165,-0.311952,-0.175144,0.060476,0.019481,0.011210,-0.999747,0.500000,0.000000,0.000000,0.077007,-0.084731,0.038942,-0.139769,0.189321,-0.165848,-0.140125,-0.068749,-0.570491,-0.825460,-0.800878,-0.771874,-0.322807,0.209222,-0.154999,0.420982,3.661367,3.451459,-3.780846,-4.398135,2.784480,1.057878,-1.443418,-2.478228,0.308490,-0.521217,0.001687,-0.566883,0.582459,-0.703292,-1.489984,-0.970468,-2.094225,-2.715614,-2.326083,-2.569180
1.650000,0.527591,0.012208,0.014117,-0.073313,0.050684,0.002704,0.019000,0.007351,-0.999792,0.500000,0.000000,0.000000,0.071705,-0.089487,0.045346,-0.128113,0.227747,-0.088775,-0.217572,-0.187331,-0.538684,-0.781078,-0.842930,-0.843301,0.292818,-0.032296,0.075553,0.420503,0.674264,3.564576,-4.147938,-5.141204,0.526279,1.651100,-3.264082,-1.775809,0.228556,-0.478583,0.124505,-0.585052,0.581001,-0.490299,-0.997270,-1.203834,-1.748528,-2.423433,-2.649341,-2.902149
1.670000,0.511458,-0.002566,0.049917,0.136700,0.120968,0.050101,0.020752,0.005692,-0.999768,0.500000,0.000000,0.000000,0.068329,-0.089569,0.064464,-0.142119,0.161597,-0.004974,-0.177473,-0.284792,-0.593132,-0.716921,-0.814558,-0.896243,-0.228016,-0.064066,0.988932,-0.801380,-3.639966,3.534766,4.686045,-3.499025,-3.081343,2.404537,2.790415,-1.051384,-0.079414,-0.340260,0.094481,-0.713500,-0.000051,-0.249111,-0.294641,-1.309956,-1.717981,-2.246757,-3.083474,-3.247652
1.690000,0.489303,-0.018511,-0.000816,0.102306,-0.027732,-0.014566,0.021339,0.014627,-0.999665,0.500000,0.000000,0.000000,0.079503,-0.077599,0.036164,-0.159842,0.081738,0.038433,-0.033073,-0.287072,-0.655257,-0.683772,-0.742347,-0.895736,0.040281,0.006720,-1.955557,0.029439,-3.365947,1.011297,7.101273,1.271752,-2.415019,0.917377,1.514926,0.980503,0.000280,-0.348919,-0.010746,-0.758215,-0.723368,-0.499547,-0.061041,-1.238944,-1.847816,-2.316934,-2.935349,-3.263576
1.710000,0.498320,-0.009140,-0.032099,0.405292,0.113597,-0.040475,0.022828,0.015067,-0.999626,0.500000,0.000000,0.000000,0.082705,-0.075080,0.023216,-0.158067,0.010773,-0.035869,0.115710,-0.217396,-0.710362,-0.736428,-0.636060,-0.858688,-0.346510,0.118538,-0.078982,0.351381,-3.470915,-4.748973,5.787072,3.000511,-2.345010,-2.672983,3.697847,0.982994,0.190503,-0.279087,0.145569,-0.713110,-1.153965,-0.962270,0.221777,-0.941226,-1.959500,-2.437766,-2.405293,-2.849117
1.730000,0.547529,0.002080,-0.018093,0.090948,0.040219,-0.053196,0.024326,0.016165,-0.999573,0.500000,0.000000,0.000000,0.086139,-0.061069,0.027644,-0.156896,-0.068689,-0.162179,0.170930,-0.142332,-0.768788,-0.813281,-0.598494,-0.817016,0.004021,0.838050,0.714246,0.069120,-4.119108,-6.020052,0.743614,3.624976,-2.856675,-2.571282,0.409221,1.756249,0.287390,-0.308617,0.148375,-0.714411,-0.964961,-1.352017,0.278958,-0.708814,-2.153468,-2.668683,-1.992139,-2.564082
1.750000,0.517583,0.005032,0.036337,0.010256,0.041489,-0.044837,0.025160,0.018468,-0.999513,0.500000,0.000000,0.000000,0.104456,-0.067434,0.025913,-0.158412,-0.097982,-0.286974,0.102560,-0.063292,-0.781900,-0.884166,-0.651978,-0.765482,1.135100,-0.640682,-0.029122,0.112531,-0.011795,-4.869825,-3.711167,3.767109,0.002789,-1.205526,-2.761993,2.509017,0.356415,-0.483159,-0.075927,-0.642528,-0.277397,-1.501345,-0.230023,-0.583592,-2.530405,-3.005380,-1.937305,-2.392621
1.770000,0.507466,0.019358,0.043537,0.076648,-0.004838,-0.047495,0.025598,0.014301,-0.999570,0.500000,0.000000,0.000000,0.110684,-0.084075,0.028039,-0.150588,-0.020232,-0.321316,0.014969,0.013211,-0.723340,-0.900975,-0.714652,-0.708005,-0.206990,-0.469103,0.023302,0.271088,5.144635,0.030169,-4.079030,3.996051,3.442528,1.194176,-3.067650,3.213281,0.259788,-0.483788,-0.197167,-0.571277,0.131914,-1.365140,-1.023282,-0.471899,-2.745605,-3.258743,-2.100619,-2.292713
1.790000,0.485557,0.028913,0.003015,-0.399355,-0.220949,0.035353,0.022995,0.012153,-0.999662,0.500000,0.000000,0.000000,0.092762,-0.086487,0.033346,-0.146827,0.093514,-0.252302,-0.060108,0.018933,-0.643593,-0.868623,-0.758065,-0.706254,-0.971741,0.284880,-0.265147,-0.213189,4.870893,3.446686,-3.538784,-1.264784,3.268461,0.949748,-1.397435,-0.890592,0.264254,-0.444264,-0.100934,-0.581887,0.266590,-1.074159,-1.499779,-0.689197,-2.460814,-3.039642,-2.137929,-2.392721
1.810000,0.523369,0.024281,-0.014702,-0.307976,-0.172224,0.062186,0.019552,0.011385,-0.999744,0.500000,0.000000,0.000000,0.076939,-0.086022,0.038147,-0.138287,0.188584,-0.165439,-0.139597,-0.068814,-0.571351,-0.825749,-0.800882,-0.771029,-0.328719,0.210461,-0.151781,0.434489,3.688609,3.442996,-3.776136,-4.405938,2.800925,1.056523,-1.444868,-2.465698,0.307779,-0.525664,-0.001044,-0.561527,0.579855,-0.700832,-1.488410,-0.970703,-2.096115,-2.717358,-2.326599,-2.565623
1.830000,0.527584,0.011663,0.014225,-0.068585,0.049283,0.004247,0.019063,0.007534,-0.999790,0.500000,0.000000,0.000000,0.071580,-0.090693,0.044489,-0.126543,0.227264,-0.088318,-0.217099,-0.187195,-0.539352,-0.781195,-0.843132,-0.842273,0.280362,-0.028603,0.072912,0.427167,0.678876,3.593403,-4.122732,-5.123359,0.530306,1.713055,-3.173273,-1.760126,0.227779,-0.484222,0.121779,-0.580451,0.578542,-0.487111,-0.996285,-1.202784,-1.751257,-2.425456,-2.649226,-2.897334
1.850000,0.511961,-0.003628,0.049374,0.144529,0.125865,0.049271,0.020871,0.005770,-0.999766,0.500000,0.000000,0.000000,0.068212,-0.090774,0.063536,-0.140779,0.161129,-0.004539,-0.177018,-0.284647,-0.593856,-0.717024,-0.814893,-0.895428,-0.228456,-0.067225,0.990467,-0.814525,-3.640192,3.536234,4.676883,-3.503175,-3.087926,2.417788,2.770771,-1.057155,-0.077680,-0.345602,0.092625,-0.709417,-0.002624,-0.248731,-0.294471,-1.309534,-1.719601,-2.246126,-3.085911,-3.244074
1.870000,0.489486,-0.019547,-0.001527,0.103773,-0.026946,-0.014402,0.021499,0.014645,-0.999662,0.500000,0.000000,0.000000,0.079497,-0.078649,0.035609,-0.158867,0.081486,0.038604,-0.032752,-0.287133,-0.655844,-0.683962,-0.742420,-0.895252,0.042768,0.017917,-1.932272,0.016183,-3.371417,0.996009,7.093267,1.265055,-2.408870,0.906101,1.537657,0.974893,0.001448,-0.351788,-0.011462,-0.754730,-0.727749,-0.498753,-0.060183,-1.238984,-1.848471,-2.318358,-2.935228,-3.261721
1.890000,0.497730,-0.010417,-0.031997,0.406495,0.107136,-0.041134,0.022907,0.015049,-0.999624,0.500000,0.000000,0.000000,0.082789,-0.075846,0.023106,-0.157219,0.010526,-0.036020,0.115714,-0.217512,-0.710705,-0.736884,-0.636412,-0.858455,-0.341334,0.133226,-0.056873,0.345269,-3.463971,-4.762675,5.774586,2.997407,-2.306218,-2.688751,3.707200,0.966480,0.191359,-0.281482,0.145754,-0.709936,-1.156839,-0.962817,0.221461,-0.941661,-1.959282,-2.439887,-2.405252,-2.846644
1.910000,0.547380,0.001000,-0.017479,0.090721,0.038117,-0.053502,0.024329,0.016171,-0.999573,0.500000,0.000000,0.000000,0.086381,-0.061584,0.027710,-0.156222,-0.068938,-0.162416,0.170610,-0.142447,-0.768955,-0.813770,-0.598834,-0.816909,0.010406,0.844460,0.718574,0.063286,-4.116885,-6.017908,0.728823,3.623584,-2.842798,-2.569153,0.407636,1.749788,0.287967,-0.311149,0.148591,-0.711875,-0.964651,-1.351965,0.277756,-0.709027,-2.154713,-2.670694,-1.993730,-2.561020
1.930000,0.517993,0.003826,0.037548,0.019042,0.047052,-0.043896,0.025176,0.018443,-0.999513,0.500000,0.000000,0.000000,0.104621,-0.067789,0.025932,-0.157807,-0.098106,-0.286877,0.102176,-0.063399,-0.781918,-0.884067,-0.652315,-0.765311,1.126054,-0.620274,-0.023229,0.114729,0.008495,-4.833162,-3.709403,3.766237,0.016270,-0.724876,-2.765156,2.518826,0.356430,-0.485050,-0.076504,-0.640000,-0.276508,-1.501358,-0.231614,-0.583969,-2.531753,-3.007645,-1.938651,-2.391224
1.950000,0.506677,0.018010,0.043656,0.094935,-0.012468,-0.047401,0.025556,0.014155,-0.999573,0.500000,0.000000,0.000000,0.110950,-0.084224,0.027944,-0.149849,-0.019216,-0.320360,0.014670,0.012881,-0.722307,-0.900462,-0.714878,-0.707758,-0.226194,-0.461973,0.034018,0.353737,5.210480,0.092364,-4.082233,3.883026,3.508215,1.206860,-3.061488,3.403041,0.261295,-0.483473,-0.199197,-0.566653,0.137992,-1.358943,-1.022870,-0.474062,-2.744004,-3.256280,-2.101098,-2.296967
1.970000,0.486992,0.027294,0.003457,-0.406680,-0.215782,0.040936,0.022962,0.012023,-0.999664,0.500000,0.000000,0.000000,0.093028,-0.086314,0.033157,-0.145864,0.095594,-0.250970,-0.060548,0.016894,-0.641678,-0.867828,-0.758388,-0.707398,-0.974467,0.309797,-0.273884,-0.212151,4.905176,3.440834,-3.548628,-1.303698,3.293024,0.940949,-1.405329,-0.895687,0.265572,-0.441419,-0.099079,-0.579165,0.273030,-1.063933,-1.499592,-0.696780,-2.454875,-3.033329,-2.141093,-2.394486
1.990000,0.525303,0.022960,-0.014514,-0.306745,-0.174862,0.061643,0.019525,0.011190,-0.999747,0.500000,0.000000,0.000000,0.076676,-0.085695,0.037950,-0.137177,0.190075,-0.163828,-0.140405,-0.070988,-0.569953,-0.824318,-0.801395,-0.772045,-0.346007,0.213188,-0.157889,0.435835,3.635575,3.445015,-3.802972,-4.402597,2.759280,1.040244,-1.476841,-2.450547,0.306707,-0.526977,-0.000873,-0.558982,0.582169,-0.695134,-1.481718,-0.975918,-2.089164,-2.715589,-2.329884,-2.570226
2.010000,0.527221,0.011098,0.015246,-0.083331,0.041535,0.001301,0.018954,0.007537,-0.999792,0.500000,0.000000,0.000000,0.071110,-0.090113,0.043939,-0.126299,0.227216,-0.086537,-0.217954,-0.188992,-0.539220,-0.779788,-0.843395,-0.843150,0.274878,-0.012763,0.048192,0.370895,0.605024,3.606701,-4.139781,-5.099205,0.474593,1.731542,-3.182524,-1.746853,0.223059,-0.483107,0.122444,-0.581707,0.576794,-0.482554,-0.983045,-1.205428,-1.748647,-2.422848,-2.654436,-2.902564
2.030000,0.512991,-0.004117,0.049539,0.123462,0.125781,0.046785,0.020695,0.006092,-0.999767,0.500000,0.000000,0.000000,0.067740,-0.090576,0.062741,-0.141834,0.160504,-0.004543,-0.176400,-0.285613,-0.594181,-0.717789,-0.814092,-0.896114,-0.198313,-0.025362,0.959235,-0.878227,-3.639107,3.604761,4.777460,-3.449086,-3.063371,2.614836,2.839824,-1.029378,-0.081810,-0.344398,0.090050,-0.713531,-0.011229,-0.245406,-0.286611,-1.310627,-1.723902,-2.242764,-3.091387,-3.248925
2.050000,0.490436,-0.019914,-0.002401,0.115539,-0.026425,-0.018709,0.021317,0.014778,-0.999664,0.500000,0.000000,0.000000,0.079029,-0.078633,0.034981,-0.159121,0.080916,0.037672,-0.031923,-0.286666,-0.656020,-0.684845,-0.741551,-0.895100,0.035968,0.001899,-1.920293,0.060672,-3.384614,0.921469,7.060040,1.323445,-2.403853,0.847339,1.524343,0.991157,0.004151,-0.350918,-0.012293,-0.752366,-0.733208,-0.508072,-0.064235,-1.238835,-1.848181,-2.321683,-2.931295,-3.260859
2.070000,0.499072,-0.010675,-0.032827,0.405694,0.108533,-0.039260,0.022754,0.015129,-0.999627,0.500000,0.000000,0.000000,0.082306,-0.075493,0.022964,-0.157482,0.009761,-0.037840,0.115795,-0.216970,-0.711139,-0.738184,-0.635997,-0.858354,-0.341268,0.160586,-0.022845,0.339498,-3.472464,-4.786393,5.742247,3.005723,-2.316993,-2.686562,3.688128,0.966839,0.189436,-0.279263,0.146692,-0.712003,-1.155510,-0.968471,0.222176,-0.939737,-1.961807,-2.444139,-2.402011,-2.845402
2.090000,0.547572,0.000579,-0.017617,0.091068,0.040910,-0.052509,0.024228,0.016218,-0.999575,0.500000,0.000000,0.000000,0.085854,-0.061181,0.027915,-0.156542,-0.069755,-0.164391,0.169891,-0.141857,-0.769503,-0.814887,-0.599054,-0.816780,0.012661,0.839855,0.722533,0.060075,-4.122438,-6.009755,0.693800,3.626234,-2.863091,-2.543449,0.373272,1.751064,0.287566,-0.312168,0.147129,-0.712383,-0.958850,-1.355869,0.273957,-0.709049,-2.158397,-2.674456,-1.991850,-2.561275
2.110000,0.518028,0.003506,0.036969,0.014756,0.045574,-0.044074,0.025083,0.018491,-0.999514,0.500000,0.000000,0.000000,0.104332,-0.067887,0.026178,-0.158192,-0.097903,-0.288559,0.101061,-0.062829,-0.781794,-0.885317,-0.652870,-0.765194,1.134788,-0.645768,-0.029601,0.108675,0.081694,-4.798104,-3.727152,3.768239,0.068865,-1.164981,-2.831582,2.518550,0.355102,-0.486089,-0.077434,-0.641066,-0.271451,-1.502843,-0.239947,-0.583089,-2.535670,-3.012148,-1.938429,-2.391295
2.130000,0.507216,0.018262,0.043109,0.089451,-0.012560,-0.044190,0.025504,0.014179,-0.999574,0.500000,0.000000,0.000000,0.110237,-0.084320,0.028455,-0.150286,-0.019019,-0.321003,0.013799,0.013500,-0.722457,-0.900920,-0.715171,-0.707564,-0.248215,-0.467399,0.041317,0.346225,5.173282,0.110231,-4.062256,3.885786,3.469414,1.196300,-2.982451,3.416260,0.258412,-0.483959,-0.195436,-0.569681,0.133198,-1.362779,-1.032570,-0.474790,-2.745978,-3.260912,-2.100407,-2.295002
2.150000,0.487390,0.027397,0.002529,-0.406922,-0.214273,0.039447,0.022940,0.012113,-0.999663,0.500000,0.000000,0.000000,0.092512,-0.086342,0.033591,-0.146236,0.095443,-0.251439,-0.061440,0.016946,-0.642161,-0.868201,-0.758782,-0.707428,-0.954407,0.306276,-0.276280,-0.194706,4.899961,3.434654,-3.550394,-1.352001,3.289891,0.923372,-1.412624,-0.658750,0.265610,-0.441819,-0.096555,-0.579444,0.273870,-1.064554,-1.501181,-0.697462,-2.456715,-3.035350,-2.142473,-2.395151
2.170000,0.525258,0.023331,-0.016226,-0.312419,-0.185315,0.062985,0.019416,0.011168,-0.999749,0.500000,0.000000,0.000000,0.076347,-0.085666,0.038565,-0.137211,0.190137,-0.163737,-0.141468,-0.071621,-0.570073,-0.826125,-0.801826,-0.772918,-0.326794,0.288380,-0.160826,0.443972,3.648927,3.671222,-3.819101,-4.420049,2.786661,0.258014,-1.484215,-2.477667,0.306091,-0.525104,0.004328,-0.558590,0.583842,-0.691025,-1.481416,-0.976245,-2.090576,-2.717550,-2.330993,-2.571383
2.190000,0.526223,0.013015,0.016270,-0.119770,0.043643,-0.003126,0.018901,0.008009,-0.999789,0.500000,0.000000,0.000000,0.070963,-0.089491,0.044180,-0.127422,0.228965,-0.085739,-0.218763,-0.188170,-0.538150,-0.779630,-0.843432,-0.843086,0.282046,0.007537,0.012905,0.297059,0.700573,3.580868,-4.145330,-5.006312,0.541204,1.680939,-3.205003,-1.683621,0.217590,-0.492667,0.117358,-0.592434,0.586708,-0.484546,-0.986111,-1.203403,-1.746853,-2.427196,-2.649205,-2.896360
2.210000,0.511742,-0.002428,0.050593,0.122433,0.125739,0.044030,0.020657,0.006726,-0.999764,0.500000,0.000000,0.000000,0.067066,-0.090092,0.063044,-0.143647,0.163437,-0.003860,-0.178405,-0.284362,-0.592435,-0.717581,-0.814538,-0.895813,-0.203027,-0.039021,0.980371,-0.900582,-3.627545,3.595229,4.697242,-3.467133,-3.048198,2.604196,2.802911,-1.046120,-0.083585,-0.343325,0.092035,-0.718785,0.002675,-0.242179,-0.297734,-1.310637,-1.717686,-2.239882,-3.089062,-3.248226
2.230000,0.489076,-0.018717,-0.001599,0.120045,-0.028344,-0.016333,0.021275,0.015198,-0.999658,0.500000,0.000000,0.000000,0.077843,-0.078443,0.035480,-0.161422,0.083704,0.040202,-0.034502,-0.287601,-0.654601,-0.683141,-0.743317,-0.896147,0.022586,0.006845,-1.927030,0.045015,-3.371812,1.029008,7.069727,1.204862,-2.417404,0.930612,1.473846,0.932816,-0.002199,-0.347352,-0.012707,-0.759054,-0.722880,-0.494926,-0.067870,-1.242440,-1.845389,-2.314507,-2.940016,-3.268785
2.250000,0.497593,-0.009477,-0.032828,0.408900,0.116653,-0.038962,0.022775,0.015478,-0.999621,0.500000,0.000000,0.000000,0.080897,-0.075151,0.023022,-0.159510,0.012798,-0.033829,0.114332,-0.218007,-0.709868,-0.735345,-0.636733,-0.859293,-0.349128,0.164338,-0.061529,0.355672,-3.465455,-4.751204,5.803060,3.035273,-2.359127,-2.665791,3.701244,1.016975,0.184772,-0.276545,0.145682,-0.715985,-1.155513,-0.956904,0.218743,-0.942791,-1.956697,-2.433455,-2.410980,-2.854737
2.270000,0.548317,0.002414,-0.018904,0.096388,0.046112,-0.067212,0.024382,0.016478,-0.999567,0.500000,0.000000,0.000000,0.084576,-0.060003,0.028181,-0.158074,-0.067458,-0.159946,0.170376,-0.143100,-0.769104,-0.811619,-0.598598,-0.817649,0.021171,0.881408,0.742015,0.097625,-4.136028,-6.026968,0.795327,3.612993,-2.890301,-2.569135,0.445157,1.764648,0.280931,-0.301774,0.153256,-0.718576,-0.972998,-1.348993,0.277865,-0.710824,-2.148046,-2.661414,-1.993583,-2.563911
2.290000,0.517830,0.005159,0.036131,0.021899,0.042242,-0.047025,0.025242,0.018686,-0.999507,0.500000,0.000000,0.000000,0.102828,-0.065497,0.026528,-0.159218,-0.098422,-0.285782,0.102272,-0.064110,-0.783308,-0.882775,-0.652012,-0.766141,1.132031,-0.610012,-0.015288,0.128189,-0.123802,-4.937623,-3.732488,3.762203,-0.078058,-1.220049,-2.843774,2.492595,0.353596,-0.475481,-0.066267,-0.649061,-0.286947,-1.502035,-0.223463,-0.582187,-2.525447,-2.996736,-1.934305,-2.396265
2.310000,0.507344,0.019431,0.044641,0.072209,-0.006452,-0.041427,0.025650,0.014622,-0.999564,0.500000,0.000000,0.000000,0.110172,-0.082358,0.028700,-0.151530,-0.021236,-0.322487,0.014728,0.012591,-0.724588,-0.900886,-0.714432,-0.708471,-0.138657,-0.490155,0.030765,0.251885,5.155597,-0.074529,-4.076947,3.994015,3.484914,1.163047,-3.038700,3.199335,0.259586,-0.481381,-0.193130,-0.576423,0.132721,-1.369208,-1.021236,-0.465794,-2.749025,-3.256856,-2.099604,-2.292657
2.330000,0.486408,0.029174,0.003622,-0.385535,-0.224579,0.035837,0.022988,0.012263,-0.999661,0.500000,0.000000,0.000000,0.092699,-0.084989,0.034338,-0.147661,0.092528,-0.253812,-0.060536,0.019140,-0.644344,-0.868870,-0.757763,-0.706299,-0.964432,0.267644,-0.248260,-0.204829,4.868085,3.443576,-3.544419,-1.216770,3.287896,0.923021,-1.389582,-0.867096,0.264387,-0.441691,-0.098249,-0.586258,0.263521,-1.078802,-1.497595,-0.685629,-2.466340,-3.043352,-2.140368,-2.393878
2.350000,0.524717,0.023703,-0.013360,-0.303725,-0.164697,0.066705,0.019671,0.011278,-0.999743,0.500000,0.000000,0.000000,0.076841,-0.084738,0.039491,-0.139525,0.187997,-0.167827,-0.140073,-0.067970,-0.571804,-0.826009,-0.800628,-0.770648,-0.329787,0.215776,-0.143600,0.402598,3.708237,3.437785,-3.777575,-4.385506,2.813668,1.044007,-1.443789,-2.456870,0.307592,-0.522021,0.001190,-0.566589,0.578774,-0.706582,-1.491863,-0.967736,-2.100828,-2.720624,-2.325269,-2.565561
2.370000,0.528847,0.011898,0.014421,-0.075602,0.041620,0.003015,0.019144,0.007407,-0.999789,0.500000,0.000000,0.000000,0.071461,-0.089394,0.045863,-0.127863,0.227580,-0.090559,-0.217776,-0.186249,-0.538915,-0.781541,-0.842858,-0.841974,0.285910,-0.023225,0.064497,0.430323,0.726736,3.611489,-4.133579,-5.122088,0.585389,1.716023,-3.130692,-1.778146,0.228827,-0.482012,0.123346,-0.582786,0.583750,-0.493143,-1.008781,-1.199578,-1.755227,-2.434528,-2.643879,-2.897647
2.390000,0.512288,-0.003235,0.049611,0.130030,0.119507,0.047609,0.020819,0.005746,-0.999767,0.500000,0.000000,0.000000,0.067767,-0.089528,0.064707,-0.141697,0.162345,-0.006685,-0.178968,-0.284113,-0.592600,-0.717764,-0.815057,-0.895297,-0.212098,-0.055715,0.983515,-0.803724,-3.646517,3.547466,4.601112,-3.531454,-3.079075,2.416673,2.736130,-1.068499,-0.077090,-0.341499,0.097633,-0.710714,0.011212,-0.257786,-0.304937,-1.309482,-1.717567,-2.248675,-3.082586,-3.243090
2.410000,0.490004,-0.019187,-0.001160,0.104311,-0.033163,-0.013758,0.021330,0.014630,-0.999665,0.500000,0.000000,0.000000,0.078903,-0.077695,0.036467,-0.160037,0.082042,0.038395,-0.035361,-0.288307,-0.655067,-0.683619,-0.743672,-0.896220,0.043281,0.000541,-1.952965,0.004499,-3.371416,1.112867,7.094030,1.179803,-2.425405,0.979474,1.493976,0.926156,-0.004686,-0.349296,-0.010842,-0.759682,-0.715415,-0.495018,-0.064793,-1.242511,-1.849209,-2.317846,-2.941623,-3.267298
2.430000,0.498429,-0.009649,-0.032800,0.401877,0.113142,-0.042638,0.022744,0.015127,-0.999627,0.500000,0.000000,0.000000,0.082281,-0.075387,0.023085,-0.158347,0.010969,-0.034567,0.114001,-0.218521,-0.710140,-0.735685,-0.637062,-0.859311,-0.335399,0.105099,-0.113986,0.353328,-3.473321,-4.706247,5.828718,3.044313,-2.346604,-2.662607,3.710879,1.018708,0.187898,-0.280289,0.143525,-0.713015,-1.151968,-0.958376,0.217349,-0.946121,-1.960105,-2.435527,-2.412168,-2.854916
2.450000,0.548177,0.002016,-0.019391,0.095289,0.046939,-0.064974,0.024339,0.016174,-0.999573,0.500000,0.000000,0.000000,0.086037,-0.061415,0.027494,-0.157000,-0.069242,-0.160444,0.170611,-0.143617,-0.769218,-0.812376,-0.598793,-0.817755,0.021866,0.837066,0.715405,0.092147,-4.136477,-6.015849,0.817937,3.611366,-2.896765,-2.581728,0.447354,1.761012,0.284430,-0.306548,0.149829,-0.715241,-0.971972,-1.349777,0.278223,-0.712714,-2.151239,-2.665210,-1.994783,-2.565583
2.470000,0.517538,0.004922,0.035209,0.013715,0.042012,-0.048856,0.025216,0.018439,-0.999512,0.500000,0.000000,0.000000,0.104434,-0.067520,0.025616,-0.158265,-0.099559,-0.286370,0.102604,-0.064722,-0.783044,-0.883674,-0.652273,-0.766403,1.145380,-0.625857,-0.029747,0.118879,-0.078975,-4.974922,-3.719239,3.756839,-0.051530,-0.790255,-2.799968,2.483805,0.356540,-0.480379,-0.071824,-0.643273,-0.287003,-1.502185,-0.223985,-0.585604,-2.527138,-3.001223,-1.935605,-2.395278
2.490000,0.507502,0.018847,0.044098,0.083919,-0.007391,-0.047849,0.025557,0.014298,-0.999571,0.500000,0.000000,0.000000,0.111291,-0.083903,0.027567,-0.150435,-0.021073,-0.321953,0.014975,0.011757,-0.723674,-0.901356,-0.714920,-0.709208,-0.186921,-0.446590,0.026712,0.275454,5.226305,0.029174,-4.081534,3.990951,3.515074,1.208689,-3.064545,3.193530,0.261729,-0.483118,-0.199822,-0.569654,0.135607,-1.364288,-1.016461,-0.470443,-2.747503,-3.256551,-2.101445,-2.295905
2.510000,0.486467,0.028544,0.003890,-0.397789,-0.220438,0.036089,0.022950,0.012009,-0.999664,0.500000,0.000000,0.000000,0.093117,-0.086342,0.033026,-0.146809,0.093524,-0.252832,-0.060206,0.017974,-0.643284,-0.868857,-0.758334,-0.707163,-0.991235,0.286901,-0.264133,-0.231772,4.887024,3.455127,-3.544932,-1.234851,3.277785,0.959950,-1.398327,-0.867459,0.264161,-0.444269,-0.103240,-0.583863,0.263377,-1.076754,-1.497705,-0.693228,-2.459702,-3.039310,-2.139219,-2.395192
2.530000,0.524294,0.024144,-0.014358,-0.309811,-0.173171,0.061439,0.019501,0.011246,-0.999747,0.500000,0.000000,0.000000,0.076833,-0.085839,0.037799,-0.138612,0.188584,-0.165769,-0.139828,-0.069154,-0.571186,-0.825671,-0.801156,-0.771549,-0.348849,0.209152,-0.155429,0.418903,3.680800,3.433044,-3.783479,-4.382875,2.789229,1.025280,-1.447692,-2.455225,0.307576,-0.525119,-0.002308,-0.562630,0.579111,-0.702726,-1.488300,-0.972158,-2.096651,-2.719576,-2.327774,-2.568172
2.550000,0.528294,0.011728,0.014402,-0.072791,0.047638,0.003658,0.018978,0.007494,-0.999792,0.500000,0.000000,0.000000,0.071354,-0.090400,0.044023,-0.127120,0.227331,-0.088563,-0.217388,-0.187115,-0.539146,-0.781263,-0.843183,-0.842580,0.279722,-0.024587,0.073156,0.420958,0.686779,3.603900,-4.155039,-5.109964,0.538665,1.724599,-3.255051,-1.757507,0.228068,-0.483532,0.120860,-0.581655,0.579967,-0.487851,-0.999245,-1.202860,-1.752349,-2.428141,-2.649303,-2.899165
2.570000,0.511593,-0.003143,0.049629,0.140417,0.121282,0.049762,0.020711,0.005746,-0.999769,0.500000,0.000000,0.000000,0.067909,-0.090506,0.063446,-0.141112,0.161267,-0.004737,-0.177909,-0.284707,-0.593470,-0.717210,-0.815090,-0.895753,-0.227801,-0.064903,1.013808,-0.803028,-3.642854,3.538338,4.648130,-3.520040,-3.087558,2.413608,2.771499,-1.063878,-0.077522,-0.344075,0.092723,-0.709180,0.001379,-0.249645,-0.298664,-1.311606,-1.719275,-2.247521,-3.084259,-3.245002
2.590000,0.489309,-0.019169,-0.001234,0.099286,-0.028648,-0.013940,0.021291,0.014679,-0.999666,0.500000,0.000000,0.000000,0.079159,-0.078394,0.035638,-0.159226,0.081422,0.038998,-0.034004,-0.287928,-0.655569,-0.683801,-0.743210,-0.895954,0.046498,0.018359,-1.932136,0.013550,-3.367288,1.031945,7.086951,1.229026,-2.414032,0.929959,1.503734,0.958953,-0.000562,-0.351137,-0.012247,-0.755839,-0.723937,-0.496345,-0.063247,-1.241987,-1.848774,-2.317509,-2.939210,-3.264805
2.610000,0.498318,-0.009766,-0.032240,0.400651,0.115317,-0.041064,0.022771,0.015189,-0.999625,0.500000,0.000000,0.000000,0.082525,-0.075672,0.022937,-0.157591,0.010461,-0.035074,0.114858,-0.218213,-0.710643,-0.736332,-0.636647,-0.858927,-0.335672,0.126537,-0.076331,0.350139,-3.469884,-4.744040,5.798380,3.041906,-2.346275,-2.672577,3.706431,1.024624,0.189859,-0.281220,0.144565,-0.710657,-1.156349,-0.959761,0.219911,-0.943955,-1.959242,-2.437807,-2.410203,-2.851351
2.630000,0.547832,0.001767,-0.018420,0.093507,0.046217,-0.065449,0.024371,0.016276,-0.999570,0.500000,0.000000,0.000000,0.086319,-0.061480,0.027644,-0.156314,-0.069630,-0.161369,0.170733,-0.143307,-0.769524,-0.813048,-0.598697,-0.817253,0.025891,0.840754,0.719556,0.090836,-4.133905,-6.026267,0.785506,3.611717,-2.888974,-2.577616,0.432113,1.764838,0.286130,-0.308168,0.149498,-0.712573,-0.970943,-1.351362,0.278911,-0.711801,-2.152110,-2.667960,-1.994166,-2.564046
2.650000,0.517850,0.003953,0.036856,0.027371,0.048979,-0.045103,0.025283,0.018447,-0.999510,0.500000,0.000000,0.000000,0.104637,-0.067394,0.025890,-0.157556,-0.099425,-0.286492,0.102571,-0.064413,-0.782919,-0.883792,-0.652231,-0.765732,1.127647,-0.599274,-0.014989,0.127030,-0.039103,-4.850434,-3.715609,3.758821,-0.024224,-1.183244,-2.798889,2.505095,0.356582,-0.481762,-0.072898,-0.641535,-0.284445,-1.502897,-0.226033,-0.585019,-2.529391,-3.004329,-1.936065,-2.394281
2.670000,0.506646,0.018455,0.044249,0.069145,-0.006950,-0.043983,0.025744,0.014334,-0.999566,0.500000,0.000000,0.000000,0.111270,-0.083900,0.027891,-0.149930,-0.021482,-0.322090,0.015193,0.012134,-0.724129,-0.901029,-0.714759,-0.708165,-0.185254,-0.475291,0.014732,0.245180,5.167073,-0.050151,-4.067258,3.992777,3.463814,1.152008,-3.021604,3.197781,0.260647,-0.485591,-0.199248,-0.570137,0.129244,-1.368939,-1.021770,-0.471943,-2.747901,-3.260244,-2.100125,-2.293014
2.690000,0.485581,0.028217,0.003386,-0.393795,-0.226917,0.033508,0.023048,0.012110,-0.999661,0.500000,0.000000,0.000000,0.093022,-0.086326,0.033189,-0.146316,0.092259,-0.253383,-0.059959,0.018533,-0.644391,-0.869043,-0.758075,-0.706186,-0.997382,0.278216,-0.266146,-0.218177,4.862501,3.443693,-3.541742,-1.223998,3.261853,0.922660,-1.390227,-0.872979,0.264688,-0.446159,-0.102784,-0.581298,0.261453,-1.076933,-1.496024,-0.689024,-2.465266,-3.043397,-2.140054,-2.392510
2.710000,0.524033,0.022786,-0.013436,-0.305854,-0.167375,0.065754,0.019679,0.011217,-0.999743,0.500000,0.000000,0.000000,0.076677,-0.085851,0.038103,-0.138328,0.187714,-0.167218,-0.139468,-0.068379,-0.572084,-0.826062,-0.800933,-0.770445,-0.349432,0.220544,-0.152087,0.399999,3.710124,3.432126,-3.777711,-4.372281,2.808099,1.039737,-1.445883,-2.444739,0.307318,-0.526008,-0.002303,-0.562194,0.577739,-0.703337,-1.489032,-0.969425,-2.101331,-2.720846,-2.326840,-2.563933
2.730000,0.528635,0.010709,0.014354,-0.068756,0.041291,0.003925,0.019137,0.007339,-0.999790,0.500000,0.000000,0.000000,0.071155,-0.090389,0.044376,-0.126755,0.227306,-0.089947,-0.217192,-0.186173,-0.539237,-0.781562,-0.843222,-0.841529,0.285451,-0.023175,0.065530,0.429622,0.733563,3.611394,-4.130184,-5.100844,0.600366,1.719346,-3.138268,-1.768345,0.228638,-0.485929,0.120022,-0.579414,0.582289,-0.489551,-1.007486,-1.199994,-1.757140,-2.434594,-2.645236,-2.894887
2.750000,0.511848,-0.004381,0.049343,0.144963,0.120718,0.050802,0.020830,0.005420,-0.999768,0.500000,0.000000,0.000000,0.067678,-0.090577,0.063773,-0.140498,0.161541,-0.006131,-0.178644,-0.283775,-0.593195,-0.717656,-0.815646,-0.894906,-0.226906,-0.060316,1.015258,-0.799390,-3.649195,3.543726,4.576371,-3.524826,-3.103216,2.423746,2.685442,-1.072730,-0.075510,-0.345042,0.095636,-0.706974,0.009586,-0.254970,-0.305566,-1.309749,-1.719424,-2.249828,-3.082159,-3.240068
2.770000,0.489128,-0.020151,-0.001441,0.099480,-0.032719,-0.015311,0.021355,0.014329,-0.999669,0.500000,0.000000,0.000000,0.078941,-0.078443,0.036180,-0.159074,0.081372,0.038456,-0.035174,-0.287991,-0.655475,-0.683758,-0.743796,-0.895944,0.044311,0.016846,-1.925110,-0.004810,-3.337565,1.087137,7.090200,1.176286,-2.130424,0.962416,1.514377,0.923950,-0.003119,-0.351568,-0.011179,-0.755583,-0.719076,-0.494527,-0.064056,-1.243280,-1.850770,-2.319039,-2.941702,-3.264627
2.790000,0.499524,-0.010229,-0.033481,0.404393,0.116634,-0.038566,0.022865,0.014847,-0.999628,0.500000,0.000000,0.000000,0.082306,-0.075978,0.023305,-0.157572,0.010305,-0.034972,0.113804,-0.218177,-0.710795,-0.736024,-0.637717,-0.859010,-0.341122,0.108091,-0.089253,0.345205,-3.477443,-4.705540,5.808383,3.038731,-2.358755,-2.657526,3.693226,1.009565,0.186561,-0.282711,0.145058,-0.710576,-1.150992,-0.954319,0.217789,-0.940111,-1.963158,-2.439317,-2.417439,-2.853202
2.810000,0.548307,0.001427,-0.019306,0.091922,0.046073,-0.066199,0.024471,0.015992,-0.999573,0.500000,0.000000,0.000000,0.086213,-0.061851,0.027740,-0.156422,-0.069905,-0.160846,0.170456,-0.143227,-0.769862,-0.812704,-0.599409,-0.817430,0.031502,0.840196,0.711285,0.086940,-4.140371,-6.009610,0.830385,3.613129,-2.896852,-2.580170,0.459656,1.757194,0.284375,-0.308386,0.149509,-0.712149,-0.973142,-1.349667,0.278382,-0.712456,-2.151377,-2.667014,-1.995657,-2.563276
2.830000,0.517859,0.004637,0.036714,0.019423,0.048864,-0.047883,0.025461,0.018351,-0.999507,0.500000,0.000000,0.000000,0.104783,-0.067886,0.025687,-0.157660,-0.100066,-0.286316,0.102605,-0.063939,-0.783622,-0.883494,-0.652839,-0.765338,1.137976,-0.632915,-0.023023,0.132819,-0.065149,-4.946400,-3.715894,3.783833,-0.046954,-0.770853,-2.804068,2.580942,0.356526,-0.482290,-0.071721,-0.641576,-0.288182,-1.503013,-0.224368,-0.584786,-2.528396,-3.002883,-1.935897,-2.392672
2.850000,0.506666,0.018487,0.044845,0.080909,-0.009801,-0.046381,0.025815,0.014248,-0.999565,0.500000,0.000000,0.000000,0.111507,-0.084159,0.027597,-0.149973,-0.021352,-0.322017,0.015195,0.012487,-0.724144,-0.901117,-0.715215,-0.708076,-0.198641,-0.440494,0.023678,0.266815,5.234191,0.008593,-4.070637,3.991773,3.518274,1.201337,-3.029179,3.197200,0.261234,-0.483034,-0.200767,-0.566815,0.134319,-1.364832,-1.019496,-0.469816,-2.749293,-3.257276,-2.101919,-2.293452
2.870000,0.485789,0.028190,0.004306,-0.399997,-0.225029,0.034586,0.023137,0.011985,-0.999660,0.500000,0.000000,0.000000,0.093153,-0.086520,0.032959,-0.146436,0.093223,-0.252979,-0.059915,0.018384,-0.643740,-0.868648,-0.758436,-0.706336,-0.996582,0.287235,-0.271558,-0.234079,4.880922,3.441615,-3.541442,-1.251867,3.277807,0.924453,-1.386646,-0.884952,0.264750,-0.445314,-0.103645,-0.582222,0.261766,-1.075776,-1.498094,-0.691653,-2.461676,-3.039160,-2.140130,-2.392269
2.890000,0.524401,0.023107,-0.012979,-0.308425,-0.171742,0.064697,0.019719,0.011160,-0.999743,0.500000,0.000000,0.000000,0.076691,-0.086041,0.037807,-0.138444,0.188375,-0.166943,-0.139492,-0.068883,-0.571566,-0.825879,-0.801172,-0.770784,-0.354219,0.219255,-0.154805,0.406732,3.681734,3.438901,-3.782592,-4.381365,2.793107,1.036312,-1.440361,-2.448753,0.307770,-0.526294,-0.002488,-0.562139,0.578525,-0.701895,-1.488064,-0.970417,-2.098865,-2.719761,-2.328290,-2.565366
2.910000,0.528667,0.010992,0.014921,-0.072645,0.041804,0.003983,0.019142,0.007350,-0.999790,0.500000,0.000000,0.000000,0.071125,-0.090537,0.044017,-0.126974,0.227271,-0.089602,-0.217250,-0.186895,-0.539226,-0.781331,-0.843373,-0.841933,0.279013,-0.020134,0.062720,0.421209,0.695091,3.612185,-4.138549,-5.110206,0.558864,1.723946,-3.150115,-1.764795,0.228043,-0.485347,0.120030,-0.580545,0.581606,-0.489173,-1.002003,-1.201543,-1.755136,-2.432703,-2.648913,-2.897144
2.930000,0.512220,-0.004156,0.049522,0.144111,0.121300,0.050042,0.020840,0.005516,-0.999768,0.500000,0.000000,0.000000,0.067682,-0.090679,0.063327,-0.140918,0.161246,-0.005784,-0.178135,-0.284443,-0.593394,-0.717386,-0.815384,-0.895219,-0.226268,-0.061477,1.009199,-0.802976,-3.648787,3.547810,4.616809,-3.515498,-3.095649,2.431690,2.711174,-1.064782,-0.076297,-0.345209,0.093704,-0.708620,0.005074,-0.253954,-0.301208,-1.310041,-1.720009,-2.249457,-3.085266,-3.242807
2.950000,0.489543,-0.019887,-0.001664,0.098611,-0.031902,-0.014992,0.021370,0.014428,-0.999668,0.500000,0.000000,0.000000,0.078993,-0.078536,0.035729,-0.159203,0.081148,0.038118,-0.034418,-0.287986,-0.655600,-0.683975,-0.743410,-0.895791,0.054254,0.019906,-1.920635,0.006163,-3.368967,1.040442,7.085744,1.210787,-2.418216,0.928020,1.511333,0.942139,-0.001111,-0.351436,-0.011729,-0.755510,-0.721832,-0.497688,-0.063719,-1.242555,-1.850217,-2.319742,-2.939975,-3.264305
2.970000,0.498740,-0.010272,-0.032779,0.398092,0.113966,-0.042605,0.022807,0.015009,-0.999627,0.500000,0.000000,0.000000,0.082545,-0.075781,0.023030,-0.157698,0.010096,-0.035849,0.114345,-0.218244,-0.710660,-0.736559,-0.637028,-0.858883,-0.327351,0.125887,-0.076714,0.345721,-3.474607,-4.736033,5.794775,3.043027,-2.345718,-2.669889,3.701856,1.019478,0.188932,-0.281646,0.144387,-0.710746,-1.154524,-0.961470,0.217968,-0.944814,-1.960771,-2.439080,-2.411378,-2.850636
2.990000,0.547819,0.001089,-0.018590,0.093386,0.041536,-0.052982,0.024317,0.016127,-0.999574,0.500000,0.000000,0.000000,0.086159,-0.061566,0.027684,-0.156667,-0.069413,-0.162076,0.170054,-0.143240,-0.769098,-0.813345,-0.599090,-0.817405,0.006925,0.847009,0.727576,0.065576,-4.119083,-6.022826,0.771980,3.620596,-2.855086,-2.572591,0.430542,1.749228,0.285581,-0.309120,0.148901,-0.712940,-0.969335,-1.352694,0.276528,-0.712357,-2.153663,-2.669291,-1.995088,-2.563805
3.010000,0.517743,0.004134,0.035472,0.011046,0.043119,-0.048121,0.025176,0.018415,-0.999513,0.500000,0.000000,0.000000,0.104483,-0.067960,0.025836,-0.158212,-0.099112,-0.287530,0.101762,-0.064276,-0.782540,-0.884597,-0.652651,-0.766044,1.146264,-0.646932,-0.037206,0.112144,-0.032915,-4.916927,-3.724720,3.760258,-0.017894,-1.222962,-2.821823,2.493995,0.356413,-0.483881,-0.074999,-0.641504,-0.282259,-1.502613,-0.228317,-0.586124,-2.530552,-3.005793,-1.938254,-2.394126
